3DLUTKit/Tests/3DLUTKitTests/Resources/Contrast17.cube
TITLE "Contrast"
LUT_3D_SIZE 9
0 0 0
0.0587472 0.00117494 0.00117494
0.127565 0 0
0.251041 0 0
0.404211 0 0
0.56405 0 0
0.702754 0 0
0.804486 0 0
0.894423 0 0
0.000869764 0.0584421 0.000869764
0.0578012 0.0578012 0.000228885
0.125917 0.0544289 0
0.250233 0.0370031 0
0.405905 0.0128634 0
0.570153 0 0
0.71632 0 0
0.82919 0 0
0.932204 0 0
0 0.119936 0
0.0510567 0.122545 0
0.124483 0.124483 0
0.257176 0.115434 0
0.42533 0.103792 0
0.602823 0.0931868 0
0.761028 0.0907759 0
0.882689 0.100465 0
0.992386 0.115618 0
0 0.222644 0
0.0249332 0.238163 0
0.111437 0.253178 0
0.255482 0.255482 0
0.431296 0.251484 0
0.614954 0.247044 0
0.778805 0.250294 0
0.90573 0.265248 0
1 0.284596 0.0137942
0 0.376486 0
0.00572213 0.398749 0
0.0985275 0.420066 0
0.248127 0.427924 0
0.42884 0.42884 0
0.616663 0.428565 0
0.78378 0.43508 0
0.912749 0.452064 0.00146487
1 0.472084 0.0214847
0 0.553201 0
0 0.580163 0
0.0956588 0.60531 0
0.24799 0.615885 0
0.430106 0.618204 0
0.618372 0.618372 0
0.78436 0.623743 0
0.910842 0.638254 0
1 0.65481 0.0161135
0 0.73402 0
0.0203403 0.762081 0
0.116716 0.786969 0
0.267506 0.796017 0
0.446647 0.795361 0
0.631159 0.79176 0
0.792355 0.792355 0
0.913359 0.801389 0.00207523
1 0.812009 0.0126955
0 0.899168 0
0.0705425 0.924254 0.0129702
0.162722 0.944945 0.0336614
0.308385 0.948867 0.037583
0.482002 0.942672 0.0313878
0.659724 0.932311 0.0210269
0.813016 0.924987 0.0137026
0.925322 0.925322 0.0140383
1 0.927779 0.016495
0.0393072 1 0.0393072
0.116197 1 0.0586252
0.201022 1 0.0719615
0.338155 1 0.0673533
0.503288 1 0.0526894
0.673518 1 0.0348211
0.821012 1 0.0216983
0.929305 1 0.0180209
1 1 0.0179141
0.000244144 0.000244144 0.0578164
0.0590372 0.00146487 0.0590372
0.12752 0 0.0560311
0.250828 0 0.0375982
0.403998 0 0.0109712
0.563958 0 0
0.703075 0 0
0.80528 0 0
0.895933 0 0
0.000656138 0.0582284 0.0582284
0.0575723 0.0575723 0.0575723
0.125948 0.0544442 0.0544442
0.250736 0.0375067 0.0375067
0.407095 0.0140688 0.0140688
0.572259 0 0
0.719707 0 0
0.834333 0 0
0.938201 0 0
0 0.120516 0.0490272
0.0523079 0.123796 0.0523079
0.127184 0.127184 0.0556802
0.261616 0.119875 0.0483864
0.4309 0.109361 0.0378576
0.609155 0.0995193 0.0280308
0.768017 0.0977646 0.026276
0.890364 0.108141 0.0366522
1 0.123537 0.0520485
0 0.22768 0.0144503
0.0307164 0.243946 0.0307164
0.11812 0.259861 0.0466316
0.262699 0.262699 0.0494545
0.438788 0.258991 0.0457618
0.623331 0.255436 0.0422065
0.787747 0.259236 0.0460059
0.915038 0.274556 0.061326
1 0.294133 0.0809033
0 0.384039 0
0.0137789 0.406821 0.0137789
0.107073 0.428611 0.035584
0.257115 0.436912 0.0438849
0.437873 0.437873 0.0448463
0.626307 0.438209 0.0451667
0.793484 0.44477 0.0517433
0.922408 0.461723 0.0686809
1 0.48159 0.0885481
0 0.562356 0
0.00848402 0.589609 0.00848402
0.105318 0.614954 0.0338293
0.25771 0.625605 0.04448
0.439506 0.627604 0.046479
0.627726 0.627726 0.0465858
0.793393 0.632792 0.0516518
0.919158 0.646586 0.0654459
1 0.662913 0.0817884
0 0.74342 0.00167849
0.0299077 0.771649 0.0299077
0.125963 0.796216 0.0544747
0.27631 0.804822 0.0630808
0.455024 0.803738 0.0619974
0.639063 0.799664 0.0579232
0.799695 0.799695 0.0579385
0.919875 0.807904 0.0661631
1 0.817502 0.075761
0 0.90779 0.0540627
0.0786908 0.932403 0.0786908
0.170291 0.952514 0.0988022
0.315343 0.955825 0.102113
0.48838 0.949065 0.0953536
0.66508 0.937667 0.0839551
0.817304 0.929274 0.0755627
0.928923 0.928923 0.0752117
1 0.930983 0.0772564
0.0460365 1 0.103609
0.122011 1 0.122011
0.205966 1 0.134478
0.342245 1 0.129015
0.506798 1 0.113771
0.67657 1 0.0954299
0.823697 1 0.0819562
0.931975 1 0.0782635
1 1 0.0780957
0 0 0.128801
0.0581064 0.000534066 0.129595
0.12639 0 0.12639
0.249607 0 0.107866
0.402808 0 0.0812695
0.562936 0 0.0532998
0.702556 0 0.0323033
0.805447 0 0.0232242
0.896971 0 0.0202029
0 0.0570077 0.128496
0.0564431 0.0564431 0.127932
0.125063 0.0535744 0.125063
0.250294 0.0370642 0.108553
0.407446 0.0144045 0.085893
0.573922 0 0.0642863
0.723079 0 0.0528267
0.838865 0 0.0566415
0.94342 0 0.0666514
0 0.120394 0.120394
0.0528878 0.124376 0.124376
0.129061 0.129061 0.129061
0.265629 0.123888 0.123888
0.435752 0.114214 0.114214
0.614801 0.105165 0.105165
0.774197 0.103944 0.103944
0.897078 0.114855 0.114855
1 0.130922 0.130922
0 0.231785 0.0900587
0.0359197 0.249149 0.107408
0.124041 0.265766 0.124041
0.26923 0.26923 0.127489
0.445777 0.26598 0.124239
0.630838 0.262943 0.121202
0.795712 0.267201 0.12546
0.923186 0.282704 0.140963
1 0.302754 0.161028
0 0.390478 0.0689403
0.021088 0.41413 0.0925917
0.114855 0.436393 0.114855
0.265248 0.44506 0.123522
0.446311 0.446311 0.124773
0.634958 0.44686 0.125322
0.802197 0.453483 0.131945
0.930602 0.469917 0.148379
1 0.489952 0.168399
0 0.570321 0.0606699
0.0170443 0.598169 0.0885328
0.113985 0.623636 0.113985
0.266087 0.633997 0.124346
0.448066 0.636179 0.126528
0.635966 0.635966 0.126329
0.801221 0.64062 0.130983
0.926558 0.653971 0.144335
1 0.669825 0.160189
0 0.752056 0.0818036
0.0383764 0.780133 0.10988
0.134157 0.80441 0.134157
0.283696 0.812207 0.141955
0.462181 0.810895 0.140642
0.64564 0.806256 0.136004
0.805737 0.805737 0.1355
0.925277 0.813306 0.143053
1 0.821866 0.151614
0.00410468 0.915389 0.133165
0.085771 0.939483 0.157259
0.176715 0.958938 0.176715
0.320928 0.96141 0.179187
0.493217 0.953902 0.171679
0.669062 0.941649 0.159426
0.820249 0.932219 0.149996
0.931441 0.931441 0.149218
1 0.933028 0.150805
0.051667 1 0.180728
0.126452 1 0.197955
0.209445 1 0.209445
0.345098 1 0.203357
0.509178 1 0.18764
0.678569 1 0.168933
0.825345 1 0.155093
0.933593 1 0.151369
1 1 0.151217
0 0 0.264927
0.0519417 0 0.265171
0.120119 0 0.261845
0.243305 0 0.243305
0.396628 0 0.216815
0.556985 0 0.189075
0.697032 0 0.168521
0.800748 0 0.160266
0.893431 0 0.158404
0 0.0507057 0.263935
0.050309 0.050309 0.263539
0.119341 0.0478523 0.261082
0.24506 0.0318303 0.24506
0.402808 0.00978103 0.223011
0.570718 0 0.202823
0.721996 0 0.193484
0.838788 0 0.198306
0.943969 0 0.208942
0 0.115541 0.257267
0.0490272 0.120516 0.262257
0.126482 0.126482 0.268223
0.264729 0.123003 0.264729
0.435752 0.114214 0.255955
0.615641 0.106004 0.247745
0.775647 0.105394 0.247135
0.898939 0.116716 0.258457
1 0.133333 0.275074
0 0.231281 0.231281
0.0362097 0.249439 0.249439
0.124956 0.266697 0.266697
0.270802 0.270802 0.270802
0.448005 0.268193 0.268193
0.633539 0.265629 0.265629
0.798779 0.270268 0.270268
0.926406 0.285924 0.285924
1 0.30634 0.30634
0 0.392126 0.212329
0.0234073 0.416434 0.236637
0.117708 0.439246 0.259449
0.268284 0.448096 0.268284
0.44979 0.44979 0.269978
0.63856 0.450446 0.270649
0.805768 0.457053 0.277256
0.934096 0.473411 0.293614
1 0.493126 0.313329
0 0.573632 0.205737
0.0205997 0.60174 0.233829
0.117617 0.627253 0.259358
0.269581 0.637476 0.269581
0.451484 0.639582 0.271687
0.639094 0.639094 0.271183
0.803677 0.643061 0.275166
0.928649 0.656062 0.288167
1 0.671366 0.303471
0 0.75555 0.227039
0.0416419 0.783383 0.254871
0.137087 0.80734 0.278828
0.286244 0.814755 0.286244
0.464195 0.812894 0.284382
0.646998 0.807599 0.279088
0.806119 0.806119 0.277607
0.925078 0.813107 0.284596
1 0.820813 0.292302
0.00637827 0.917662 0.277165
0.0875563 0.941268 0.300786
0.177707 0.95993 0.319448
0.321477 0.961959 0.321477
0.492607 0.953292 0.31281
0.667491 0.940078 0.299596
0.818051 0.930022 0.28954
0.928756 0.928756 0.288273
1 0.929961 0.289479
0.0519112 1 0.322713
0.125704 1 0.338949
0.207401 1 0.349142
0.342596 1 0.342596
0.506264 1 0.326467
0.675395 1 0.3075
0.821988 1 0.293477
0.930129 1 0.289647
1 1 0.289494
0 0 0.436179
0.0430915 0 0.436118
0.11107 0 0.432609
0.234272 0 0.414069
0.387671 0 0.387671
0.548486 0 0.360388
0.689036 0 0.340322
0.793362 0 0.332677
0.887465 0 0.332235
0 0.0415961 0.434638
0.0415045 0.0415045 0.434546
0.111009 0.0395209 0.432563
0.237461 0.0242313 0.417258
0.396155 0.00311284 0.396155
0.565316 0 0.377218
0.718334 0 0.369619
0.835874 0 0.375189
0.942046 0 0.386816
0 0.107958 0.429496
0.0429084 0.114397 0.435935
0.122148 0.122148 0.443687
0.261509 0.119768 0.441321
0.43328 0.111742 0.43328
0.613809 0.104158 0.425696
0.774502 0.10425 0.425788
0.898207 0.115984 0.437522
1 0.133272 0.45481
0 0.228397 0.408209
0.0340887 0.247318 0.427115
0.123369 0.26511 0.444907
0.269474 0.269474 0.449271
0.447562 0.267765 0.447562
0.633646 0.265751 0.445548
0.799268 0.270756 0.450553
0.927123 0.286641 0.466438
1 0.307195 0.486992
0 0.391394 0.391394
0.0231327 0.416159 0.416159
0.117876 0.439414 0.439414
0.268696 0.448493 0.448493
0.450599 0.450599 0.450599
0.639429 0.451331 0.451331
0.8065 0.457786 0.457786
0.934768 0.474083 0.474083
1 0.493507 0.493507
0 0.574258 0.38616
0.0214389 0.602564 0.414466
0.118486 0.628122 0.440024
0.270344 0.638239 0.450141
0.452003 0.640101 0.452003
0.639307 0.639307 0.451194
0.803342 0.642725 0.454627
0.927916 0.655329 0.467231
1 0.669978 0.481865
0 0.756298 0.407584
0.0420539 0.783795 0.43508
0.136889 0.807141 0.458427
0.285786 0.814298 0.465583
0.463249 0.811963 0.463249
0.645472 0.806073 0.457359
0.803937 0.803937 0.455222
0.921736 0.809766 0.461067
1 0.81651 0.467811
0.00569161 0.916976 0.456291
0.0862898 0.940002 0.479316
0.17583 0.958053 0.497368
0.319005 0.959487 0.498817
0.489128 0.949813 0.489128
0.662821 0.935409 0.474723
0.812818 0.924788 0.464103
0.92311 0.92311 0.462425
1 0.924041 0.463371
0.0488594 1 0.499458
0.121798 1 0.514839
0.202731 1 0.524269
0.337285 1 0.517082
0.500496 1 0.500496
0.669154 1 0.481056
0.815824 1 0.467109
0.923919 1 0.463233
1 1 0.46302
0 0 0.614862
0.0335241 0 0.614664
0.101427 0 0.611063
0.224643 0 0.592538
0.378271 0 0.566369
0.539559 0 0.539559
0.680797 0 0.520195
0.786007 0 0.51342
0.881407 0 0.514275
0 0.0320745 0.613199
0.0322271 0.0322271 0.613367
0.102174 0.0306859 0.611811
0.229313 0.016083 0.597208
0.38941 0 0.577508
0.560327 0 0.560327
0.714473 0 0.553857
0.832776 0 0.560204
0.939605 0 0.572473
0 0.100175 0.609812
0.0363928 0.107881 0.617517
0.117754 0.117754 0.62739
0.257847 0.116121 0.625757
0.430533 0.108995 0.618631
0.611597 0.101961 0.611597
0.772625 0.102373 0.612009
0.897169 0.114946 0.624582
1 0.132769 0.642405
0 0.225177 0.593088
0.0315862 0.244816 0.612711
0.121492 0.263233 0.631144
0.268116 0.268116 0.636011
0.446662 0.266865 0.63476
0.633204 0.265309 0.633204
0.798856 0.270344 0.638239
0.927337 0.286854 0.654749
1 0.307469 0.675364
0 0.39028 0.578378
0.0225071 0.415534 0.603632
0.117617 0.439155 0.627253
0.268727 0.448524 0.636622
0.450843 0.450843 0.638941
0.639719 0.451621 0.639719
0.806424 0.45771 0.645808
0.934691 0.474022 0.66212
1 0.493126 0.681224
0 0.574395 0.574395
0.0216831 0.602823 0.602823
0.118395 0.628031 0.628031
0.270481 0.638376 0.638376
0.45182 0.639933 0.639933
0.638697 0.638697 0.638697
0.802304 0.641688 0.641688
0.92639 0.653819 0.653819
1 0.667887 0.667887
0 0.756344 0.595743
0.041825 0.783566 0.62295
0.136019 0.806271 0.64567
0.284504 0.813016 0.652399
0.461402 0.810117 0.6495
0.643015 0.803616 0.643015
0.8009 0.8009 0.640284
0.917678 0.805707 0.64509
1 0.811383 0.650782
0.00433356 0.915618 0.643046
0.0842603 0.937987 0.6654
0.173129 0.955352 0.68278
0.315404 0.955886 0.683299
0.484657 0.945342 0.67277
0.65745 0.930037 0.65745
0.806912 0.918883 0.646296
0.916732 0.916732 0.64416
1 0.917342 0.644755
0.0448768 1 0.683589
0.116716 1 0.697856
0.197131 1 0.706783
0.331228 1 0.699138
0.494057 1 0.682155
0.66247 1 0.66247
0.809018 1 0.648402
0.917128 1 0.644541
1 1 0.644373
0 0 0.768002
0.0258793 0 0.767636
0.0937667 0 0.764019
0.217075 0 0.745586
0.370962 0 0.719676
0.532692 0 0.693294
0.674739 0 0.674739
0.781231 0 0.669261
0.878325 0 0.671809
0 0.0246281 0.766369
0.0251469 0.0251469 0.766903
0.0955978 0.0241093 0.76585
0.223423 0.010193 0.751934
0.384863 0 0.733562
0.5579 0 0.718502
0.712932 0 0.712932
0.831998 0 0.720027
0.939361 0 0.73283
0 0.0949721 0.765225
0.0325017 0.10399 0.774243
0.115465 0.115465 0.785718
0.256611 0.11487 0.785122
0.429999 0.108461 0.778714
0.611688 0.102052 0.772305
0.773144 0.102892 0.773144
0.898238 0.116014 0.786267
1 0.13431 0.804562
0 0.224125 0.752636
0.0311437 0.244373 0.772885
0.121538 0.263279 0.791791
0.268971 0.268971 0.797482
0.448005 0.268208 0.796719
0.634913 0.267018 0.795529
0.800855 0.272343 0.800855
0.929549 0.289067 0.817578
1 0.309743 0.838254
0 0.391241 0.739956
0.0240024 0.417044 0.765743
0.119142 0.440681 0.789395
0.270832 0.450629 0.799344
0.453071 0.453071 0.801785
0.641733 0.453635 0.80235
0.808545 0.459846 0.808545
0.936507 0.475822 0.824537
1 0.49453 0.843229
0 0.576608 0.737224
0.0239567 0.605097 0.765698
0.120607 0.630243 0.790845
0.272526 0.640421 0.801038
0.453574 0.641688 0.802289
0.639628 0.639628 0.800244
0.803021 0.642405 0.803021
0.926558 0.653971 0.814588
1 0.667506 0.828122
0 0.758221 0.758221
0.0433814 0.785122 0.785122
0.137194 0.807446 0.807446
0.285145 0.813657 0.813657
0.461387 0.810086 0.810086
0.642115 0.802716 0.802716
0.799313 0.799313 0.799313
0.915236 0.803265 0.803265
1 0.807889 0.807889
0.00474556 0.91603 0.804059
0.0838178 0.93753 0.825559
0.17232 0.954543 0.842573
0.31342 0.953902 0.841932
0.481712 0.942382 0.830411
0.653864 0.926452 0.814481
0.802853 0.914824 0.802853
0.912306 0.912306 0.800336
1 0.91252 0.800549
0.0427558 1 0.842069
0.113436 1 0.855177
0.193271 1 0.863523
0.32694 1 0.855451
0.489464 1 0.838178
0.657755 1 0.818357
0.804181 1 0.804181
0.912322 1 0.800336
1 1 0.80029
0 0 0.876005
0.0217441 0 0.875456
0.0896315 0 0.871855
0.213077 0 0.853559
0.367376 0 0.828061
0.529595 0 0.802182
0.672221 0 0.784192
0.780163 0 0.780163
0.879393 0 0.784848
0 0.020737 0.874449
0.0217288 0.0217288 0.875441
0.0929122 0.0214084 0.87512
0.221698 0.00846876 0.862181
0.384421 0 0.84509
0.559152 0 0.831724
0.715038 0 0.827008
0.834974 0 0.834974
0.942931 0 0.848386
0 0.0937819 0.876005
0.0331121 0.104601 0.886824
0.117113 0.117113 0.899321
0.259052 0.117311 0.899535
0.433066 0.111528 0.893751
0.615442 0.105806 0.888029
0.777493 0.10724 0.889464
0.903075 0.120851 0.903075
1 0.139513 0.921736
0 0.226917 0.867399
0.0344701 0.2477 0.888182
0.125292 0.267033 0.907515
0.273442 0.273442 0.913924
0.453025 0.273228 0.91371
0.640146 0.272251 0.912734
0.806485 0.277958 0.918456
0.935302 0.29482 0.935302
1 0.315511 0.956008
0 0.395865 0.85655
0.0290379 0.422065 0.88275
0.124605 0.446143 0.906828
0.276555 0.456352 0.917037
0.458854 0.458854 0.919539
0.647364 0.459266 0.919951
0.814115 0.4654 0.926085
0.941787 0.481102 0.941787
1 0.499184 0.959854
0 0.582345 0.854917
0.0295262 0.610651 0.883238
0.126253 0.635889 0.908476
0.277928 0.645838 0.91841
0.458671 0.646769 0.919356
0.644343 0.644343 0.916915
0.807172 0.646571 0.919142
0.930053 0.657465 0.930053
1 0.670069 0.942657
0 0.763546 0.875517
0.0478981 0.789639 0.90161
0.141619 0.811856 0.923842
0.289082 0.817594 0.929564
0.464576 0.813291 0.925261
0.644831 0.805432 0.917403
0.800855 0.800855 0.91284
0.915816 0.803845 0.915816
1 0.807843 0.919814
0.00836194 0.919646 0.919646
0.0869001 0.940612 0.940612
0.174731 0.956954 0.956954
0.314824 0.955306 0.955306
0.481819 0.942504 0.942504
0.653529 0.926116 0.926116
0.80209 0.914076 0.914076
0.911284 0.911284 0.911284
1 0.911315 0.911315
0.0437171 1 0.955001
0.113649 1 0.967361
0.192859 1 0.975082
0.32607 1 0.966552
0.488182 1 0.948867
0.656474 1 0.929061
0.802884 1 0.914855
0.910857 1 0.910857
1 1 0.911147
0 0 0.967758
0.0188602 0 0.967117
0.0867018 0 0.96347
0.210422 0 0.945464
0.365209 0 0.920439
0.528145 0 0.895277
0.671702 0 0.878218
0.780911 0 0.875456
0.88188 0 0.88188
0 0.0182193 0.966476
0.0196536 0.0196536 0.96791
0.0914626 0.0199741 0.968231
0.221729 0.00849927 0.956756
0.386221 0 0.941451
0.562066 0 0.929198
0.718715 0 0.925231
0.839292 0 0.933837
0.947951 0 0.947951
0 0.0940261 0.970794
0.0354772 0.106981 0.983749
0.120333 0.120333 0.997101
0.263066 0.12134 0.998108
0.437629 0.116091 0.992859
0.620233 0.110597 0.987366
0.7832 0.112963 0.989731
0.909331 0.127108 1
1 0.146166 1
0 0.231174 0.966217
0.0393683 0.252598 0.98764
0.130709 0.272435 1
0.279316 0.279316 1
0.459342 0.279545 1
0.646662 0.278752 1
0.813443 0.284932 1
0.942336 0.301839 1
1 0.322408 1
0 0.402014 0.957244
0.0354467 0.428473 0.983703
0.13138 0.452934 1
0.283543 0.46334 1
0.465888 0.465888 1
0.654231 0.466133 1
0.820783 0.472084 1
0.94815 0.487465 1
1 0.504952 1
0 0.589349 0.956481
0.0363928 0.617517 0.984649
0.13315 0.642786 1
0.284504 0.652415 1
0.464683 0.652781 1
0.650034 0.650034 1
0.812406 0.651789 1
0.934707 0.662135 1
1 0.674022 1
0 0.770016 0.976532
0.0539559 0.795697 1
0.147097 0.817349 1
0.29398 0.822492 1
0.468864 0.817578 1
0.648508 0.809125 1
0.80354 0.80354 1
0.917342 0.805371 1
1 0.808774 1
0.0129244 0.924208 1
0.090959 0.944671 1
0.177844 0.960067 1
0.317082 0.957565 1
0.483299 0.943984 1
0.654368 0.926955 1
0.802472 0.914443 1
0.911238 0.911238 1
1 0.911299 1
0.045243 1 1
0.114778 1 1
0.193545 1 1
0.326284 1 1
0.488258 1 1
0.656428 1 1
0.802838 1 1
0.910903 1 1
1 1 1
