3DLUTKit/Tests/3DLUTKitTests/Resources/Contrast17.cube
TITLE "Contrast"
LUT_3D_SIZE 5
0 0 0
0.127565 0 0
0.404211 0 0
0.702754 0 0
0.894423 0 0
0 0.119936 0
0.124483 0.124483 0
0.42533 0.103792 0
0.761028 0.0907759 0
0.992386 0.115618 0
0 0.376486 0
0.0985275 0.420066 0
0.42884 0.42884 0
0.78378 0.43508 0
1 0.472084 0.0214847
0 0.73402 0
0.116716 0.786969 0
0.446647 0.795361 0
0.792355 0.792355 0
1 0.812009 0.0126955
0.0393072 1 0.0393072
0.201022 1 0.0719615
0.503288 1 0.0526894
0.821012 1 0.0216983
1 1 0.0179141
0 0 0.128801
0.12639 0 0.12639
0.402808 0 0.0812695
0.702556 0 0.0323033
0.896971 0 0.0202029
0 0.120394 0.120394
0.129061 0.129061 0.129061
0.435752 0.114214 0.114214
0.774197 0.103944 0.103944
1 0.130922 0.130922
0 0.390478 0.0689403
0.114855 0.436393 0.114855
0.446311 0.446311 0.124773
0.802197 0.453483 0.131945
1 0.489952 0.168399
0 0.752056 0.0818036
0.134157 0.80441 0.134157
0.462181 0.810895 0.140642
0.805737 0.805737 0.1355
1 0.821866 0.151614
0.051667 1 0.180728
0.209445 1 0.209445
0.509178 1 0.18764
0.825345 1 0.155093
1 1 0.151217
0 0 0.436179
0.11107 0 0.432609
0.387671 0 0.387671
0.689036 0 0.340322
0.887465 0 0.332235
0 0.107958 0.429496
0.122148 0.122148 0.443687
0.43328 0.111742 0.43328
0.774502 0.10425 0.425788
1 0.133272 0.45481
0 0.391394 0.391394
0.117876 0.439414 0.439414
0.450599 0.450599 0.450599
0.8065 0.457786 0.457786
1 0.493507 0.493507
0 0.756298 0.407584
0.136889 0.807141 0.458427
0.463249 0.811963 0.463249
0.803937 0.803937 0.455222
1 0.81651 0.467811
0.0488594 1 0.499458
0.202731 1 0.524269
0.500496 1 0.500496
0.815824 1 0.467109
1 1 0.46302
0 0 0.768002
0.0937667 0 0.764019
0.370962 0 0.719676
0.674739 0 0.674739
0.878325 0 0.671809
0 0.0949721 0.765225
0.115465 0.115465 0.785718
0.429999 0.108461 0.778714
0.773144 0.102892 0.773144
1 0.13431 0.804562
0 0.391241 0.739956
0.119142 0.440681 0.789395
0.453071 0.453071 0.801785
0.808545 0.459846 0.808545
1 0.49453 0.843229
0 0.758221 0.758221
0.137194 0.807446 0.807446
0.461387 0.810086 0.810086
0.799313 0.799313 0.799313
1 0.807889 0.807889
0.0427558 1 0.842069
0.193271 1 0.863523
0.489464 1 0.838178
0.804181 1 0.804181
1 1 0.80029
0 0 0.967758
0.0867018 0 0.96347
0.365209 0 0.920439
0.671702 0 0.878218
0.88188 0 0.88188
0 0.0940261 0.970794
0.120333 0.120333 0.997101
0.437629 0.116091 0.992859
0.7832 0.112963 0.989731
1 0.146166 1
0 0.402014 0.957244
0.13138 0.452934 1
0.465888 0.465888 1
0.820783 0.472084 1
1 0.504952 1
0 0.770016 0.976532
0.147097 0.817349 1
0.468864 0.817578 1
0.80354 0.80354 1
1 0.808774 1
0.045243 1 1
0.193545 1 1
0.488258 1 1
0.802838 1 1
1 1 1
