3DLUTKit/Tests/3DLUTKitTests/Resources/Contrast17.cube
TITLE "Contrast"
LUT_3D_SIZE 17
0 0 0
0.0303044 0.000106813 0.000106813
0.0587472 0.00117494 0.00117494
0.0889143 0.00117494 0.00117494
0.127565 0 0
0.184146 0 0
0.251041 0 0
0.325032 0 0
0.404211 0 0
0.485039 0 0
0.56405 0 0
0.637232 0 0
0.702754 0 0
0.757351 0 0
0.804486 0 0
0.848951 0 0
0.894423 0 0
0.000518807 0.0307164 0.000518807
0.0303807 0.0303807 0.000183108
0.057847 0.0304723 0.000274662
0.0874647 0.0299382 0
0.12575 0.0268864 0
0.181994 0.0189975 0
0.248981 0.0083772 0
0.323125 0 0
0.402579 0 0
0.484077 0 0
0.563851 0 0
0.637919 0 0
0.705043 0 0
0.761028 0 0
0.810285 0 0
0.857481 0 0
0.905531 0 0
0.000869764 0.0584421 0.000869764
0.030396 0.0577554 0.000183108
0.0578012 0.0578012 0.000228885
0.0873732 0.0571908 0
0.125917 0.0544289 0
0.18265 0.0470283 0
0.250233 0.0370031 0
0.325246 0.025391 0
0.405905 0.0128634 0
0.488838 0.00047303 0
0.570153 0 0
0.646815 0 0
0.71632 0 0
0.775769 0 0
0.82919 0 0
0.879973 0 0
0.932204 0 0
0 0.0866255 0
0.0287938 0.0863355 0
0.0565499 0.0867323 0
0.0870069 0.0870069 0
0.126482 0.0851453 0
0.184405 0.0789502 0
0.253635 0.070573 0
0.330465 0.0607767 0
0.413611 0.0507515 0
0.499275 0.0410773 0
0.584421 0.033463 0
0.664942 0.0287327 0
0.738537 0.0269627 0
0.801312 0.0289311 0
0.856809 0.0332647 0
0.910048 0.0393835 0
0.963592 0.0455024 0
0 0.119936 0
0.0216526 0.1205 0
0.0510567 0.122545 0
0.0829328 0.124254 0
0.124483 0.124483 0
0.185229 0.121096 0
0.257176 0.115434 0
0.338155 0.109789 0
0.42533 0.103792 0
0.514748 0.0978714 0
0.602823 0.0931868 0
0.685649 0.0907607 0
0.761028 0.0907759 0
0.825208 0.0941482 0
0.882689 0.100465 0
0.937072 0.107713 0
0.992386 0.115618 0
0 0.164248 0
0.00451667 0.167498 0
0.036286 0.171908 0
0.0715801 0.17702 0
0.117556 0.181689 0
0.181796 0.181796 0
0.257694 0.180087 0
0.341238 0.176989 0
0.430243 0.172839 0
0.52163 0.168887 0
0.611292 0.165774 0
0.695506 0.164736 0
0.772442 0.166323 0
0.83827 0.171344 0
0.896803 0.178714 0
0.952804 0.187594 0
1 0.196521 0.00332647
0 0.222644 0
0 0.229664 0
0.0249332 0.238163 0
0.0636454 0.246708 0
0.111437 0.253178 0
0.178134 0.255741 0
0.255482 0.255482 0
0.340383 0.253758 0
0.431296 0.251484 0
0.523842 0.248707 0
0.614954 0.247044 0
0.70074 0.247593 0
0.778805 0.250294 0
0.845777 0.256458 0
0.90573 0.265248 0
0.962509 0.274891 0.00408942
1 0.284596 0.0137942
0 0.29546 0
0 0.304799 0
0.015198 0.315053 0
0.0552834 0.324971 0
0.105089 0.333455 0
0.172869 0.337102 0
0.251667 0.338293 0
0.33843 0.33843 0
0.430198 0.337026 0
0.524208 0.335698 0
0.616724 0.335454 0
0.703288 0.336767 0
0.782467 0.340581 0
0.850477 0.347768 0
0.910826 0.35697 0
0.968277 0.367285 0.00985733
1 0.377584 0.0201572
0 0.376486 0
0 0.387198 0
0.00572213 0.398749 0
0.0477302 0.410605 0
0.0985275 0.420066 0
0.16788 0.425284 0
0.248127 0.427924 0
0.335546 0.428717 0
0.42884 0.42884 0
0.52369 0.428351 0
0.616663 0.428565 0
0.704295 0.430945 0
0.78378 0.43508 0
0.851865 0.442344 0
0.912749 0.452064 0.00146487
0.969955 0.46215 0.0115511
1 0.472084 0.0214847
0 0.462943 0
0 0.474983 0
0 0.488167 0
0.0426642 0.500862 0
0.0948959 0.511772 0
0.165087 0.51783 0
0.245991 0.521126 0
0.3346 0.52311 0
0.428107 0.52343 0
0.523339 0.523339 0
0.616983 0.524224 0
0.704295 0.526268 0
0.783688 0.530312 0
0.851942 0.537758 0
0.911986 0.546639 0.000701915
0.968643 0.556176 0.0102388
1 0.565759 0.0198215
0 0.553201 0
0 0.566247 0
0 0.580163 0
0.0430457 0.594003 0
0.0956588 0.60531 0
0.166293 0.611811 0
0.24799 0.615885 0
0.336416 0.617685 0
0.430106 0.618204 0
0.525399 0.618173 0
0.618372 0.618372 0
0.705409 0.620157 0
0.78436 0.623743 0
0.851408 0.629984 0
0.910842 0.638254 0
0.966552 0.646845 0.00814832
1 0.65481 0.0161135
0 0.644129 0
0 0.657816 0
0.00616464 0.672541 0
0.0501259 0.686351 0
0.102922 0.69781 0
0.173846 0.704601 0
0.254963 0.70811 0
0.343389 0.709911 0
0.436316 0.709682 0
0.530816 0.708827 0
0.623209 0.708461 0
0.709117 0.709117 0
0.786847 0.711482 0
0.85301 0.716838 0
0.910964 0.723629 0
0.965148 0.730694 0.00674449
1 0.737728 0.0137789
0 0.73402 0
0 0.74786 0
0.0203403 0.762081 0
0.0644541 0.776028 0
0.116716 0.786969 0
0.18674 0.792859 0
0.267506 0.796017 0
0.354589 0.796475 0
0.446647 0.795361 0
0.540246 0.793622 0
0.631159 0.79176 0
0.715831 0.791196 0
0.792355 0.792355 0
0.856916 0.796094 0
0.913359 0.801389 0.00207523
0.966323 0.807218 0.00790417
1 0.812009 0.0126955
0 0.81912 0
0.00239567 0.832319 0
0.0438087 0.846357 0
0.0866712 0.859068 0
0.138018 0.869093 0.00895705
0.207416 0.874342 0.0142214
0.286534 0.875853 0.0157321
0.372534 0.875227 0.0151064
0.463462 0.872984 0.0128634
0.555383 0.869581 0.00944533
0.645197 0.866621 0.00650034
0.728191 0.864363 0.00422675
0.803021 0.863828 0.00370794
0.865644 0.865644 0.00552377
0.919844 0.868681 0.00856031
0.970153 0.87187 0.0117494
1 0.874418 0.0142824
0 0.899168 0
0.0306554 0.911742 0.000457771
0.0705425 0.924254 0.0129702
0.112398 0.935943 0.0246586
0.162722 0.944945 0.0336614
0.230259 0.948348 0.0370642
0.308385 0.948867 0.037583
0.392874 0.946731 0.0354467
0.482002 0.942672 0.0313878
0.572519 0.937865 0.0265812
0.659724 0.932311 0.0210269
0.740612 0.927947 0.0166629
0.813016 0.924987 0.0137026
0.873198 0.924346 0.0130617
0.925322 0.925322 0.0140383
0.973922 0.926787 0.0155032
1 0.927779 0.016495
0.0161593 0.974578 0.0161593
0.0573434 0.98555 0.0271458
0.0961318 0.996979 0.0385595
0.136507 1 0.0487678
0.185016 1 0.0559548
0.251469 1 0.0582742
0.327337 1 0.0565347
0.409552 1 0.0521248
0.496651 1 0.0460365
0.584237 0.996704 0.0383001
0.669474 0.989181 0.0307622
0.748409 0.982864 0.0244602
0.818952 0.978058 0.0196384
0.877943 0.976226 0.0178225
0.928801 0.975921 0.0175174
0.976333 0.976333 0.0179141
1 0.976608 0.018204
0.0393072 1 0.0393072
0.0792248 1 0.0490272
0.116197 1 0.0586252
0.15436 1 0.0666209
0.201022 1 0.0719615
0.264622 1 0.0714275
0.338155 1 0.0673533
0.41854 1 0.0611124
0.503288 1 0.0526894
0.589609 1 0.0436713
0.673518 1 0.0348211
0.751141 1 0.0271916
0.821012 1 0.0216983
0.878996 1 0.0188754
0.929305 1 0.0180209
0.976532 1 0.0181277
1 1 0.0179141
0 0 0.0301366
0.030518 0.000320439 0.030518
0.0587625 0.0011902 0.0313878
0.0888991 0.00115969 0.0313573
0.127504 0 0.0286412
0.183917 0 0.0209201
0.250889 0 0.0102846
0.324834 0 0
0.403952 0 0
0.484901 0 0
0.563882 0 0
0.637079 0 0
0.702846 0 0
0.757443 0 0
0.804669 0 0
0.849546 0 0
0.894972 0 0
0.000396735 0.0305943 0.0305943
0.0301976 0.0301976 0.0301976
0.0577096 0.0303349 0.0303349
0.0872053 0.0296635 0.0296635
0.12549 0.026627 0.026627
0.181842 0.0188449 0.0188449
0.248753 0.00814832 0.00814832
0.322972 0 0
0.402579 0 0
0.484108 0 0
0.563973 0 0
0.638331 0 0
0.705547 0 0
0.76173 0 0
0.81146 0 0
0.858732 0 0
0.907576 0 0
0.000610361 0.0581674 0.030808
0.0302281 0.0576028 0.0302281
0.0575418 0.0575418 0.0301671
0.0872511 0.057084 0.0297093
0.125887 0.0543832 0.0270237
0.182574 0.046952 0.0195926
0.250416 0.0371862 0.00982681
0.325505 0.0256504 0
0.406287 0.0132448 0
0.489509 0.00114443 0
0.571099 0 0
0.64799 0 0
0.717906 0 0
0.777844 0 0
0.83151 0 0
0.882826 0 0
0.935042 0 0
0 0.0865187 0.0289921
0.0286564 0.0861982 0.0286564
0.056672 0.0868391 0.0292973
0.0871595 0.0871595 0.0296178
0.12668 0.085359 0.0278172
0.185016 0.0795605 0.0220188
0.254246 0.0711833 0.0136416
0.331426 0.061738 0.00419623
0.415015 0.0521553 0
0.500893 0.0426947 0
0.586664 0.0357061 0
0.667582 0.0313725 0
0.741238 0.0296635 0
0.804166 0.0317845 0
0.860121 0.0365759 0
0.913268 0.0425879 0
0.966964 0.0488594 0
0 0.120043 0.0211795
0.0220951 0.120958 0.0220951
0.0515602 0.123049 0.0241855
0.0836042 0.124926 0.0260624
0.12578 0.12578 0.0269322
0.186496 0.122362 0.0234989
0.259159 0.117418 0.018555
0.340719 0.112352 0.013489
0.427802 0.106264 0.00740063
0.517723 0.100862 0.00199893
0.605997 0.0963607 0
0.688762 0.0938735 0
0.764523 0.0942702 0
0.828901 0.0978256 0
0.886259 0.104036 0.00517281
0.941039 0.111681 0.0128176
0.996216 0.119448 0.0205844
0 0.16527 0.00227359
0.00570687 0.168704 0.00570687
0.0377203 0.173342 0.0103456
0.0739147 0.17937 0.0163729
0.11989 0.184009 0.0210269
0.184695 0.184695 0.0216983
0.260731 0.183124 0.0201267
0.344182 0.17995 0.016968
0.433738 0.176333 0.0133364
0.525032 0.17229 0.00929274
0.614755 0.169238 0.00624094
0.699413 0.168643 0.0056611
0.776226 0.170108 0.0071107
0.842161 0.175219 0.0122377
0.901091 0.183001 0.0200198
0.956924 0.191714 0.0287175
1 0.200717 0.0377203
0 0.224918 0
0 0.232303 0
0.0276951 0.240925 0.000320439
0.0665141 0.249577 0.0089723
0.114794 0.256535 0.0159304
0.181353 0.258961 0.0183566
0.258778 0.258778 0.0181888
0.344228 0.257603 0.0170138
0.434882 0.255085 0.0144808
0.527687 0.252552 0.0119478
0.619211 0.251301 0.0106966
0.704738 0.251591 0.0109865
0.783123 0.254612 0.014023
0.85037 0.261036 0.0204318
0.910079 0.269596 0.0289921
0.967147 0.27953 0.038941
1 0.289433 0.0488289
0 0.298665 0
0 0.307942 0
0.0184329 0.318288 0
0.0589914 0.328679 0.00146487
0.108659 0.337026 0.00979629
0.176516 0.340749 0.0135195
0.255863 0.342489 0.0152743
0.342336 0.342336 0.0151064
0.434638 0.341466 0.0142367
0.52874 0.34023 0.0130007
0.620981 0.339712 0.0124819
0.708064 0.341527 0.014313
0.787152 0.345266 0.0180362
0.854963 0.35227 0.0250401
0.91574 0.361883 0.0346532
0.973007 0.372015 0.0447852
1 0.382147 0.0549172
0 0.379965 0
0 0.390936 0
0.00978103 0.402808 0
0.0516213 0.414496 0
0.102739 0.424277 0.00387579
0.172107 0.429526 0.0091249
0.252323 0.43212 0.0117189
0.34023 0.433402 0.0130007
0.433265 0.433265 0.0128634
0.52813 0.432792 0.0123903
0.621561 0.433463 0.0130617
0.708827 0.435477 0.0150759
0.788327 0.439628 0.0192264
0.856825 0.447303 0.0269017
0.917296 0.456611 0.0362097
0.974517 0.466712 0.0463111
1 0.476936 0.0565347
0 0.467201 0
0 0.479225 0
0.0039826 0.492348 0
0.0472572 0.505455 0
0.0992599 0.516136 0.000396735
0.169482 0.522225 0.00650034
0.250843 0.525979 0.0102388
0.339132 0.527642 0.011902
0.432639 0.527977 0.0122377
0.528283 0.528283 0.0125429
0.621546 0.528786 0.0130465
0.709133 0.531106 0.0153811
0.788571 0.535195 0.0194553
0.856397 0.542199 0.0264591
0.916686 0.551339 0.0356146
0.973297 0.56083 0.0450904
1 0.569924 0.0541848
0 0.557458 0
0 0.570642 0
0.00383001 0.58497 0
0.0475319 0.598505 0
0.100282 0.609934 0.00141909
0.171237 0.616739 0.00823987
0.252552 0.620447 0.0119478
0.341146 0.622415 0.0139162
0.434806 0.622919 0.0144045
0.529885 0.62266 0.0141604
0.623148 0.623148 0.0146487
0.70985 0.624598 0.0160983
0.788617 0.628 0.019501
0.855879 0.634455 0.0259556
0.914931 0.642359 0.0338445
0.970443 0.650736 0.042237
1 0.658946 0.0504463
0 0.648997 0
0 0.662745 0
0.0107271 0.677104 0
0.0550851 0.691295 0
0.10779 0.702678 0.00892653
0.178347 0.709102 0.0153506
0.2598 0.712963 0.0192111
0.347753 0.714275 0.0205234
0.44065 0.714 0.0202487
0.535378 0.71339 0.0196384
0.627314 0.712551 0.0187991
0.71313 0.71313 0.019379
0.791012 0.715648 0.0218967
0.856779 0.720592 0.0268406
0.914733 0.727398 0.0336461
0.968917 0.734447 0.0406958
1 0.741054 0.047303
0 0.738674 0
0 0.752377 0
0.0252079 0.766964 0
0.0688792 0.780453 0.0113527
0.12105 0.791302 0.0221866
0.191409 0.797528 0.0284123
0.271656 0.800168 0.0310521
0.358679 0.800565 0.0314488
0.45095 0.799649 0.0305486
0.54403 0.797406 0.0283055
0.634943 0.79556 0.0264439
0.719585 0.794934 0.0258183
0.795773 0.795773 0.0266728
0.860456 0.799634 0.030518
0.916594 0.804623 0.035523
0.969223 0.810132 0.0410163
1 0.814817 0.0457008
0 0.823667 0
0.00709544 0.837018 0.00709544
0.0480507 0.850599 0.020676
0.0910201 0.863401 0.0334783
0.142443 0.873503 0.0435798
0.211276 0.878218 0.0482948
0.290608 0.879942 0.0500038
0.376501 0.879194 0.0492714
0.466911 0.876432 0.0465095
0.559075 0.873274 0.0433509
0.648341 0.869764 0.0398413
0.731243 0.867414 0.0374914
0.806073 0.86688 0.0369573
0.868132 0.868132 0.0382086
0.922179 0.871031 0.0411078
0.972396 0.874098 0.0441749
1 0.87631 0.0463874
0 0.903502 0.0224155
0.0346532 0.91574 0.0346532
0.0747082 0.92842 0.0473335
0.116304 0.939849 0.0587778
0.166278 0.948501 0.0674144
0.234012 0.952102 0.0710155
0.311757 0.952239 0.0711528
0.395956 0.949813 0.0687419
0.485298 0.945968 0.0648814
0.575143 0.94049 0.0594034
0.662196 0.934783 0.0536965
0.743084 0.930404 0.0493172
0.814954 0.926925 0.0458381
0.875044 0.926192 0.0451057
0.927153 0.927153 0.046067
0.975464 0.928344 0.0472572
1 0.929412 0.0483253
0.019852 0.978271 0.0500496
0.0611582 0.989364 0.0611582
0.0995499 1 0.0721752
0.139773 1 0.0822309
0.188403 1 0.0895399
0.254337 1 0.0913558
0.329961 1 0.0893568
0.412222 1 0.0849928
0.498726 1 0.0783246
0.586297 0.998779 0.0705577
0.671458 0.991165 0.0629587
0.749981 0.984436 0.0562142
0.820645 0.979736 0.0515297
0.879332 0.977615 0.0494087
0.930114 0.977234 0.0490272
0.977768 0.977768 0.049546
1 0.977783 0.0495766
0.0427405 1 0.0729534
0.0822766 1 0.0822766
0.119203 1 0.0918288
0.157076 1 0.0995346
0.203342 1 0.104479
0.266835 1 0.103838
0.340215 1 0.0996109
0.420218 1 0.0929885
0.505058 1 0.0846571
0.591165 1 0.0754406
0.674846 1 0.0663462
0.752636 1 0.0588846
0.822217 1 0.0531014
0.880171 1 0.050248
0.930648 1 0.0495613
0.977646 1 0.049424
1 1 0.0492103
0.000244144 0.000244144 0.0578164
0.030808 0.000610361 0.0581826
0.0590372 0.00146487 0.0590372
0.0889448 0.00120546 0.0587778
0.12752 0 0.0560311
0.183978 0 0.0483558
0.250828 0 0.0375982
0.324788 0 0.0249332
0.403998 0 0.0109712
0.484871 0 0
0.563958 0 0
0.637278 0 0
0.703075 0 0
0.757824 0 0
0.80528 0 0
0.850248 0 0
0.895933 0 0
0.000442512 0.0306401 0.0580148
0.0303044 0.0303044 0.0576791
0.0576486 0.0302739 0.0576486
0.0871443 0.0296025 0.0569772
0.125536 0.0266728 0.0540475
0.181781 0.0187839 0.0461585
0.248875 0.00827039 0.0356451
0.32314 0 0.0232853
0.402701 0 0.00967422
0.484504 0 0
0.564401 0 0
0.638926 0 0
0.706416 0 0
0.762814 0 0
0.812833 0 0
0.860502 0 0
0.909834 0 0
0.000656138 0.0582284 0.0582284
0.0301823 0.0575418 0.0575418
0.0575723 0.0575723 0.0575723
0.0873121 0.057145 0.057145
0.125948 0.0544442 0.0544442
0.182895 0.0472725 0.0472725
0.250736 0.0375067 0.0375067
0.325902 0.0260471 0.0260471
0.407095 0.0140688 0.0140688
0.490272 0.00190738 0.00190738
0.572259 0 0
0.649607 0 0
0.719707 0 0
0.780301 0 0
0.834333 0 0
0.88574 0 0
0.938201 0 0
0 0.0865797 0.0563973
0.0288548 0.0863966 0.0562295
0.0569009 0.0870832 0.0569009
0.0874647 0.0874647 0.0572976
0.127321 0.0859998 0.0558328
0.185718 0.0802625 0.0500954
0.2551 0.0720531 0.0418708
0.332921 0.0632334 0.0330663
0.41648 0.0536202 0.0234531
0.503136 0.0449378 0.0147707
0.589426 0.038468 0.00830091
0.670268 0.0340429 0.00387579
0.744533 0.0329595 0.0027924
0.807553 0.0351568 0.0049897
0.863447 0.0398871 0.00972
0.917006 0.0463264 0.0161593
0.970779 0.0526894 0.0225223
0 0.120516 0.0490272
0.0227054 0.121569 0.0500649
0.0523079 0.123796 0.0523079
0.0848096 0.126131 0.0546426
0.127184 0.127184 0.0556802
0.18819 0.124056 0.0525673
0.261616 0.119875 0.0483864
0.343236 0.114885 0.0433814
0.4309 0.109361 0.0378576
0.520882 0.104005 0.032517
0.609155 0.0995193 0.0280308
0.692454 0.0975662 0.0260777
0.768017 0.0977646 0.026276
0.832547 0.101488 0.0299992
0.890364 0.108141 0.0366522
0.94493 0.115587 0.0440986
1 0.123537 0.0520485
0 0.166476 0.0308537
0.00732433 0.170306 0.0346838
0.0397955 0.175418 0.0397955
0.0763867 0.181842 0.0462196
0.122744 0.186877 0.0512551
0.18764 0.18764 0.052018
0.263798 0.186191 0.0505684
0.347738 0.183505 0.0478828
0.437156 0.179751 0.0441291
0.528527 0.175784 0.0401617
0.618799 0.173297 0.0376745
0.703212 0.172457 0.0368353
0.780392 0.174258 0.0386358
0.846616 0.17969 0.0440681
0.905303 0.187213 0.0515908
0.961578 0.196353 0.0607309
1 0.205493 0.0698711
0 0.22768 0.0144503
0 0.235035 0.0218051
0.0307164 0.243946 0.0307164
0.0699016 0.252964 0.0397345
0.11812 0.259861 0.0466316
0.184787 0.262394 0.0491646
0.262699 0.262699 0.0494545
0.348013 0.261387 0.0481575
0.438788 0.258991 0.0457618
0.532036 0.256901 0.0436561
0.623331 0.255436 0.0422065
0.709377 0.256229 0.0429999
0.787747 0.259236 0.0460059
0.854826 0.265492 0.0522621
0.915038 0.274556 0.061326
0.971908 0.284291 0.0710613
1 0.294133 0.0809033
0 0.301839 0.00198367
0 0.311513 0.0116579
0.0222019 0.322057 0.0222019
0.0626841 0.332372 0.032517
0.112703 0.34107 0.0412146
0.180774 0.345006 0.0451514
0.259968 0.346593 0.0467384
0.346853 0.346853 0.0469978
0.438972 0.3458 0.0459449
0.533135 0.344625 0.04477
0.625864 0.344579 0.0447242
0.712657 0.346136 0.0462806
0.791791 0.349905 0.0500496
0.860075 0.357366 0.0575113
0.920485 0.366629 0.0667735
0.977874 0.376883 0.0770275
1 0.387289 0.0874342
0 0.384039 0
0 0.394919 0.00189212
0.0137789 0.406821 0.0137789
0.0560922 0.418952 0.0259251
0.107073 0.428611 0.035584
0.176501 0.433906 0.0408789
0.257115 0.436912 0.0438849
0.344778 0.437949 0.0449226
0.437873 0.437873 0.0448463
0.533181 0.437842 0.0448157
0.626307 0.438209 0.0451667
0.713573 0.440223 0.0471809
0.793484 0.44477 0.0517433
0.861585 0.452064 0.0590372
0.922408 0.461723 0.0686809
0.979538 0.471733 0.078706
1 0.48159 0.0885481
0 0.471336 0
0 0.483574 0
0.00874342 0.497108 0.00874342
0.0517128 0.509911 0.0215457
0.10399 0.520851 0.0324865
0.174487 0.52723 0.0388647
0.255543 0.530678 0.0423133
0.344091 0.532601 0.0442359
0.437781 0.533104 0.0447395
0.533043 0.533043 0.0446784
0.626612 0.533837 0.0454719
0.713909 0.535897 0.0475319
0.793256 0.539879 0.0515145
0.861372 0.547189 0.0588083
0.921233 0.555886 0.0675212
0.977768 0.565301 0.076936
1 0.574609 0.086244
0 0.562356 0
0 0.575631 0
0.00848402 0.589609 0.00848402
0.0526436 0.603616 0.0224765
0.105318 0.614954 0.0338293
0.175998 0.6215 0.0403754
0.25771 0.625605 0.04448
0.34609 0.627375 0.0462348
0.439506 0.627604 0.046479
0.534936 0.62771 0.0465705
0.627726 0.627726 0.0465858
0.714382 0.629129 0.0480049
0.793393 0.632792 0.0516518
0.860182 0.638758 0.0576181
0.919158 0.646586 0.0654459
0.974823 0.655116 0.073991
1 0.662913 0.0817884
0 0.653773 0
0 0.667491 0.00111391
0.0158694 0.682261 0.0158694
0.0598459 0.696056 0.0296788
0.112505 0.707408 0.0410163
0.183413 0.714183 0.0477913
0.264454 0.717601 0.0512245
0.352331 0.718868 0.0524758
0.445518 0.718868 0.052491
0.539727 0.717754 0.0513619
0.631708 0.71696 0.0505837
0.717632 0.717632 0.0512551
0.79501 0.719646 0.0532692
0.860883 0.724712 0.05832
0.918578 0.731243 0.0648661
0.972549 0.738094 0.0717021
1 0.744808 0.0784314
0 0.74342 0.00167849
0 0.757458 0.0157168
0.0299077 0.771649 0.0299077
0.0737774 0.785351 0.0436103
0.125963 0.796216 0.0544747
0.195865 0.801984 0.0602426
0.27631 0.804822 0.0630808
0.363302 0.805188 0.063447
0.455024 0.803738 0.0619974
0.548363 0.80174 0.0599985
0.639063 0.799664 0.0579232
0.723247 0.798596 0.0568551
0.799695 0.799695 0.0579385
0.863813 0.802991 0.0612497
0.919875 0.807904 0.0661631
0.972488 0.813397 0.0716411
1 0.817502 0.075761
0 0.828458 0.0258946
0.0116274 0.84155 0.0389868
0.0528115 0.855375 0.0528115
0.0954299 0.867826 0.0652628
0.146654 0.877714 0.0751507
0.215641 0.882582 0.0800183
0.294621 0.88394 0.0813916
0.38027 0.882963 0.080415
0.470878 0.8804 0.0778515
0.5626 0.876783 0.0742351
0.651652 0.873075 0.0705119
0.734752 0.870924 0.0683604
0.808896 0.869718 0.067155
0.870832 0.870832 0.0682689
0.924865 0.873701 0.0711528
0.974533 0.876249 0.0736858
1 0.878447 0.0758831
0 0.90779 0.0540627
0.0391394 0.920226 0.0665141
0.0786908 0.932403 0.0786908
0.120226 0.943771 0.0900587
0.170291 0.952514 0.0988022
0.237644 0.955734 0.102022
0.315343 0.955825 0.102113
0.399542 0.953399 0.0996872
0.48838 0.949065 0.0953536
0.578073 0.94342 0.0897078
0.66508 0.937667 0.0839551
0.745357 0.932692 0.0789807
0.817304 0.929274 0.0755627
0.877241 0.928389 0.0746777
0.928923 0.928923 0.0752117
0.977401 0.930266 0.0765545
1 0.930983 0.0772564
0.0240177 0.982437 0.08159
0.0648051 0.993011 0.0921798
0.103182 1 0.103182
0.143359 1 0.113191
0.191653 1 0.120165
0.257557 1 0.121935
0.332815 1 0.11957
0.41474 1 0.114885
0.501137 1 0.10811
0.588479 1 0.100114
0.673335 0.993042 0.0922103
0.751949 0.986404 0.0855573
0.822339 0.981445 0.0805982
0.880873 0.979156 0.0783093
0.931807 0.978943 0.0780957
0.979171 0.979171 0.0783398
1 0.979156 0.0783246
0.0460365 1 0.103609
0.0857557 1 0.113115
0.122011 1 0.122011
0.159747 1 0.12958
0.205966 1 0.134478
0.268971 1 0.133349
0.342245 1 0.129015
0.422248 1 0.122377
0.506798 1 0.113771
0.592844 1 0.104479
0.67657 1 0.0954299
0.754101 1 0.0877241
0.823697 1 0.0819562
0.881727 1 0.0791791
0.931975 1 0.0782635
0.979095 1 0.0782483
1 1 0.0780957
0.000335698 0.000335698 0.0880751
0.0309911 0.000793469 0.0885328
0.0589456 0.00137331 0.0891127
0.0887922 0.00105287 0.0887922
0.127428 0 0.0861067
0.183719 0 0.0782635
0.250568 0 0.0675059
0.32462 0 0.0549325
0.403738 0 0.0408789
0.484794 0 0.0265965
0.563882 0 0.0129244
0.637201 0 0.000991836
0.703273 0 0
0.758007 0 0
0.805661 0 0
0.850904 0 0
0.896742 0 0
0.000396735 0.0305943 0.0881361
0.0300755 0.0300755 0.0876173
0.0574655 0.0300908 0.0876326
0.0869917 0.0294499 0.0869917
0.125277 0.0264134 0.0839399
0.181643 0.0186465 0.0761883
0.248707 0.00810254 0.0656443
0.323003 0 0.053315
0.402808 0 0.0399329
0.484596 0 0.0263981
0.564599 0 0.0136416
0.639521 0 0.00331121
0.706966 0 0
0.763806 0 0
0.814237 0 0
0.862074 0 0
