3DLUTKit/Tests/3DLUTKitTests/Resources/Kodachrome 25.cube
TITLE "Kodachrome 25"
LUT_3D_SIZE 33
0.000244 0.000244 0.000244
0.007996 0.001801 0.001801
0.015717 0.003418 0.003448
0.026031 0.005249 0.005280
0.037994 0.007263 0.007263
0.052094 0.009705 0.009766
0.071136 0.012115 0.012146
0.093567 0.015106 0.015167
0.119293 0.018127 0.018219
0.148224 0.020813 0.020874
0.182678 0.023407 0.023499
0.224121 0.025848 0.025940
0.275269 0.027893 0.028015
0.337402 0.029724 0.029846
0.411102 0.030853 0.030975
0.493988 0.031799 0.031921
0.581177 0.033112 0.033264
0.667084 0.036316 0.036499
0.745178 0.042145 0.042328
0.799591 0.051514 0.051697
0.837280 0.063995 0.064240
0.868622 0.079559 0.079865
0.886993 0.109283 0.109741
0.897675 0.137024 0.137665
0.908386 0.151184 0.151886
0.919617 0.157379 0.158112
0.931335 0.157959 0.158691
0.943573 0.155334 0.156006
0.956299 0.150818 0.151367
0.969543 0.145721 0.146118
0.983307 0.140717 0.140778
0.997406 0.135986 0.135529
1.000000 0.131531 0.130432
0.001221 0.007568 0.000031
0.009399 0.008392 0.002441
0.018158 0.009735 0.004333
0.029724 0.011993 0.006683
0.042664 0.014618 0.009583
0.058502 0.018158 0.013092
0.080261 0.022003 0.016968
0.105591 0.025665 0.020477
0.134186 0.029236 0.023895
0.166931 0.032410 0.027008
0.205902 0.035126 0.029419
0.252167 0.037384 0.031586
0.307556 0.039429 0.033478
0.372650 0.041138 0.035004
0.446655 0.042389 0.036102
0.527496 0.043793 0.037231
0.610596 0.045898 0.039276
0.690521 0.050018 0.043182
0.761597 0.056671 0.049683
0.806976 0.066803 0.059631
0.841553 0.079407 0.071991
0.870422 0.094513 0.086884
0.886688 0.124359 0.116241
0.897156 0.150513 0.141846
0.907898 0.163849 0.154785
0.919250 0.170288 0.160889
0.931030 0.171478 0.161804
0.943298 0.169617 0.159668
0.956085 0.166138 0.155853
0.969421 0.161957 0.151154
0.983246 0.157562 0.146240
0.997345 0.153534 0.141449
1.000000 0.149475 0.136627
0.000916 0.017853 0.002777
0.010986 0.018616 0.005280
0.020721 0.020172 0.007782
0.033661 0.023163 0.011017
0.047638 0.026306 0.014496
0.066071 0.030212 0.018494
0.089905 0.034271 0.022583
0.117859 0.038452 0.026520
0.149628 0.042450 0.030273
0.186340 0.046082 0.033600
0.229950 0.048981 0.036163
0.281189 0.051453 0.038239
0.340271 0.053436 0.039856
0.407501 0.055054 0.041077
0.481598 0.056488 0.042206
0.559479 0.058350 0.043701
0.637512 0.061371 0.046356
0.711487 0.066254 0.051025
0.775909 0.073761 0.058228
0.813568 0.084137 0.068237
0.844940 0.096375 0.079987
0.871124 0.111389 0.094360
0.886108 0.139709 0.121735
0.896423 0.164154 0.145081
0.907379 0.177094 0.157104
0.918793 0.183777 0.162994
0.930664 0.185883 0.164490
0.942993 0.185120 0.163147
0.955872 0.182831 0.160217
0.969238 0.179749 0.156372
0.983124 0.176208 0.152039
0.997314 0.172638 0.147614
1.000000 0.169098 0.143097
0.000122 0.031860 0.010406
0.012360 0.033142 0.011841
0.023407 0.034760 0.014496
0.036987 0.037689 0.018005
0.052277 0.041412 0.021515
0.072876 0.045410 0.025360
0.099243 0.049957 0.029785
0.129822 0.054535 0.034027
0.164764 0.058655 0.037781
0.205353 0.062408 0.040924
0.253265 0.065460 0.043396
0.308350 0.068054 0.045349
0.370270 0.070068 0.046783
0.438660 0.071808 0.047913
0.511871 0.073608 0.049164
0.586548 0.076080 0.051117
0.659576 0.079773 0.054474
0.727173 0.085327 0.059692
0.784851 0.093201 0.067230
0.817871 0.103333 0.076935
0.846619 0.114807 0.087646
0.870789 0.128387 0.100342
0.885010 0.154449 0.125183
0.895538 0.177277 0.146454
0.906616 0.190094 0.157898
0.918152 0.197510 0.164093
0.930176 0.200836 0.166412
0.942596 0.201416 0.166046
0.955566 0.200470 0.164124
0.969055 0.198395 0.161102
0.983032 0.195770 0.157471
0.997253 0.192902 0.153595
1.000000 0.189789 0.149475
0.000000 0.047333 0.019318
0.013397 0.049591 0.019806
0.026062 0.051208 0.022064
0.040314 0.053741 0.025299
0.056854 0.057739 0.029236
0.078766 0.062897 0.033417
0.107941 0.068237 0.037750
0.141052 0.073242 0.041962
0.179108 0.077820 0.045746
0.223053 0.081848 0.048859
0.274506 0.085297 0.051300
0.332428 0.088165 0.053131
0.396210 0.090515 0.054565
0.464630 0.092621 0.055847
0.536072 0.094757 0.057373
0.607300 0.097778 0.059784
0.675568 0.101929 0.063629
0.737671 0.107758 0.069183
0.789551 0.115448 0.076569
0.819794 0.125000 0.085571
0.846283 0.135376 0.095093
0.869019 0.146820 0.105438
0.883667 0.168365 0.125793
0.894379 0.189636 0.145386
0.905609 0.202759 0.156769
0.917297 0.211121 0.163574
0.929474 0.215942 0.167053
0.942078 0.218262 0.168060
0.955139 0.218628 0.167267
0.968719 0.217804 0.165253
0.982758 0.216064 0.162445
0.997162 0.213989 0.159271
1.000000 0.211304 0.155609
0.000000 0.064941 0.029633
0.013763 0.068207 0.029480
0.028442 0.070190 0.031311
0.043640 0.072998 0.034332
0.060760 0.076904 0.038391
0.083923 0.082611 0.042877
0.115509 0.089325 0.047119
0.151001 0.095245 0.051025
0.191711 0.100586 0.054596
0.238586 0.105286 0.057709
0.292328 0.109253 0.060150
0.351746 0.112701 0.062073
0.416199 0.115570 0.063629
0.483765 0.118164 0.065094
0.552704 0.120819 0.067047
0.620300 0.124146 0.069794
0.684113 0.128418 0.073853
0.741791 0.134125 0.079376
0.790863 0.141205 0.086212
0.818665 0.149689 0.094147
0.843445 0.158844 0.102448
0.865204 0.168304 0.110748
0.881744 0.183380 0.124634
0.893188 0.202301 0.142242
0.904572 0.215820 0.154083
0.916382 0.225250 0.161743
0.928680 0.231537 0.166412
0.941437 0.235474 0.168884
0.954681 0.237427 0.169525
0.968384 0.237793 0.168671
0.982544 0.237091 0.166809
0.997070 0.235657 0.164337
1.000000 0.233612 0.161346
0.000000 0.084351 0.041016
0.012329 0.089172 0.040863
0.030151 0.091888 0.042419
0.046722 0.095337 0.045197
0.064728 0.099640 0.049011
0.089233 0.105469 0.053711
0.122253 0.112976 0.058319
0.159821 0.120453 0.061920
0.202362 0.127045 0.065033
0.250977 0.132690 0.067780
0.305786 0.137451 0.070160
0.365631 0.141663 0.072235
0.429443 0.145172 0.074005
0.495392 0.148376 0.075806
0.561493 0.151520 0.077942
0.625183 0.154968 0.080872
0.684937 0.159180 0.084900
0.738831 0.164459 0.090057
0.785675 0.170746 0.096130
0.814819 0.177887 0.102844
0.838226 0.185608 0.109772
0.859375 0.193451 0.116425
0.877899 0.202515 0.124176
0.891754 0.216553 0.137238
0.903442 0.230347 0.150116
0.915466 0.240845 0.159210
0.927917 0.248505 0.165344
0.940796 0.253815 0.169250
0.954163 0.257080 0.171295
0.968018 0.258667 0.171692
0.982300 0.258850 0.170776
0.996948 0.258148 0.169067
1.000000 0.256683 0.166809
0.000000 0.107147 0.054565
0.009094 0.112640 0.054352
0.031189 0.116425 0.055481
0.049408 0.120667 0.057983
0.068604 0.125854 0.061554
0.093964 0.132324 0.066132
0.128754 0.140198 0.071075
0.168274 0.148926 0.075104
0.212372 0.157104 0.077759
0.261688 0.163879 0.079956
0.316254 0.169525 0.081726
0.374634 0.174408 0.083588
0.436829 0.178680 0.085510
0.500366 0.182465 0.087555
0.563416 0.186035 0.089844
0.623444 0.189575 0.092743
0.679626 0.193542 0.096436
0.730591 0.198212 0.101013
0.775665 0.203613 0.106232
0.808899 0.209564 0.111816
0.831390 0.215851 0.117493
0.852051 0.222290 0.123016
0.871216 0.228760 0.128265
0.888275 0.236633 0.134918
0.902039 0.247498 0.145416
0.914429 0.258270 0.155975
0.927063 0.266907 0.163757
0.940125 0.273315 0.169220
0.953644 0.277802 0.172729
0.967621 0.280457 0.174438
0.982056 0.281738 0.174805
0.996826 0.281708 0.173920
1.000000 0.280853 0.172302
0.000000 0.132874 0.069305
0.008392 0.139069 0.069458
0.032288 0.144104 0.070496
0.052185 0.149170 0.072754
0.072601 0.155396 0.076050
0.098236 0.163025 0.080383
0.134979 0.171844 0.085358
0.176849 0.181458 0.090179
0.223145 0.191101 0.093292
0.272797 0.199188 0.094727
0.325958 0.205597 0.095703
0.381561 0.210999 0.096832
0.440125 0.215515 0.098175
0.500000 0.219666 0.100037
0.559937 0.223511 0.102386
0.616577 0.227173 0.105164
0.669556 0.230896 0.108398
0.718170 0.234894 0.112244
0.762238 0.239380 0.116577
0.799500 0.244110 0.121094
0.823547 0.249054 0.125671
0.844055 0.254150 0.130188
0.863403 0.259308 0.134552
0.881744 0.264435 0.138763
0.898590 0.270477 0.144104
0.913025 0.278595 0.152618
0.926086 0.287201 0.161896
0.939301 0.294312 0.168915
0.953033 0.299591 0.173859
0.967194 0.303192 0.176910
0.981781 0.305389 0.178467
0.996704 0.306244 0.178650
1.000000 0.306061 0.177856
0.000000 0.162872 0.085724
0.008942 0.169525 0.085938
0.035156 0.175262 0.087158
0.056030 0.181274 0.089294
0.077576 0.188782 0.092468
0.103943 0.197662 0.096558
0.141632 0.207733 0.101410
0.185455 0.218506 0.106415
0.234528 0.229370 0.110657
0.285645 0.239014 0.112701
0.337067 0.246094 0.112701
0.389343 0.251556 0.112610
0.443176 0.255859 0.112793
0.497589 0.259613 0.113678
0.552429 0.263092 0.115204
0.606293 0.266541 0.117615
0.656769 0.269958 0.120392
0.703552 0.273376 0.123566
0.746277 0.276855 0.126984
0.785034 0.280518 0.130585
0.815399 0.284210 0.134216
0.835968 0.287994 0.137848
0.855591 0.291870 0.141449
0.874390 0.295715 0.144928
0.892639 0.299438 0.148254
0.909851 0.303925 0.152710
0.924805 0.310272 0.160278
0.938446 0.317291 0.168701
0.952332 0.322906 0.174988
0.966675 0.326965 0.179138
0.981476 0.329712 0.181763
0.996490 0.331390 0.182983
1.000000 0.332031 0.183136
0.000000 0.197784 0.103210
0.015594 0.204834 0.103729
0.041565 0.210846 0.105225
0.062653 0.217834 0.107391
0.084900 0.226440 0.110504
0.111725 0.236481 0.114349
0.150696 0.247650 0.118927
0.195557 0.259430 0.123840
0.246063 0.271332 0.128632
0.299744 0.282410 0.132294
0.351105 0.290619 0.132782
0.399780 0.295715 0.131317
0.448273 0.299316 0.129974
0.497070 0.302002 0.129242
0.546021 0.304230 0.129181
0.594788 0.306458 0.130188
0.642578 0.309052 0.132080
0.688171 0.311829 0.134552
0.730408 0.314484 0.137177
0.769257 0.317139 0.139984
0.804047 0.319916 0.142853
0.828369 0.322540 0.145721
0.848328 0.325287 0.148621
0.867615 0.328125 0.151520
0.886475 0.330688 0.154297
0.904938 0.333435 0.157135
0.922455 0.336823 0.161102
0.937439 0.342224 0.168671
0.951599 0.347717 0.176239
0.966187 0.352020 0.181488
0.981110 0.355194 0.184998
0.996368 0.357361 0.187103
1.000000 0.358459 0.188049
0.006104 0.237793 0.121399
0.030029 0.244232 0.122467
0.052094 0.250946 0.124146
0.072998 0.258881 0.126434
0.095703 0.268402 0.129486
0.123810 0.279297 0.133209
0.163391 0.291138 0.137512
0.208618 0.303223 0.142029
0.258972 0.315399 0.146790
0.313232 0.327026 0.151276
0.366333 0.336700 0.153900
0.414032 0.342560 0.152924
0.457367 0.345215 0.149933
0.500458 0.346497 0.147156
0.543701 0.347107 0.145203
0.586945 0.347504 0.144104
0.630463 0.348358 0.144165
0.673431 0.349823 0.145264
0.715118 0.351654 0.147125
0.754333 0.353455 0.149200
0.790894 0.355438 0.151428
0.821472 0.357239 0.153656
0.841736 0.359131 0.155945
0.861481 0.361053 0.158325
0.880829 0.362732 0.160614
0.899902 0.364532 0.162933
0.918610 0.366547 0.165497
0.935913 0.369507 0.169861
0.950806 0.374084 0.177582
0.965576 0.378235 0.183838
0.980774 0.381531 0.188171
0.996185 0.384033 0.191071
1.000000 0.385529 0.192657
0.025848 0.280975 0.140106
0.046814 0.287628 0.141663
0.066589 0.295166 0.143616
0.087219 0.303925 0.146118
0.110382 0.313934 0.149109
0.140320 0.325073 0.152649
0.180573 0.336823 0.156586
0.225494 0.348602 0.160767
0.274628 0.360260 0.165131
0.327179 0.371368 0.169464
0.379822 0.381592 0.173431
0.429108 0.389160 0.174957
0.470703 0.392517 0.172577
0.508606 0.392639 0.167938
0.546234 0.391571 0.163696
0.584106 0.390167 0.160339
0.623077 0.389069 0.158173
0.662537 0.388519 0.157166
0.701843 0.388824 0.157379
0.740570 0.389526 0.158325
0.777802 0.390747 0.159943
0.812256 0.391907 0.161652
0.835907 0.393005 0.163330
0.855957 0.394165 0.165161
0.875732 0.395233 0.167053
0.895264 0.396240 0.168915
0.914520 0.397522 0.171021
0.933319 0.399048 0.173523
0.949951 0.401978 0.179199
0.964966 0.405731 0.186279
0.980377 0.408905 0.191315
0.996002 0.411377 0.194794
1.000000 0.413177 0.196930
0.047668 0.327667 0.159637
0.065918 0.334747 0.161377
0.084961 0.342834 0.163574
0.105469 0.351868 0.166077
0.128876 0.361938 0.169037
0.162079 0.372620 0.172302
0.202240 0.383728 0.175964
0.246246 0.394653 0.179718
0.293274 0.405304 0.183655
0.342773 0.415314 0.187561
0.392303 0.424744 0.191559
0.441254 0.432922 0.194916
0.484955 0.438324 0.195404
0.521149 0.439270 0.191406
0.553802 0.437195 0.185181
0.586456 0.434113 0.179413
0.620544 0.431274 0.174805
0.656372 0.428711 0.171417
0.692657 0.427155 0.169495
0.729523 0.426086 0.168427
0.765839 0.425873 0.168549
0.801208 0.426361 0.169525
0.830627 0.426849 0.170685
0.850983 0.427338 0.171997
0.871124 0.427856 0.173431
0.891022 0.428406 0.175018
0.910675 0.429077 0.176727
0.930145 0.429901 0.178619
0.948547 0.431427 0.181885
0.964264 0.434387 0.188843
0.979919 0.437256 0.194489
0.995789 0.439636 0.198456
1.000000 0.441437 0.201019
0.070618 0.377289 0.179352
0.088135 0.384552 0.181335
0.106964 0.392548 0.183502
0.127502 0.401245 0.186035
0.153320 0.410675 0.188782
0.188202 0.420532 0.191864
0.227448 0.430481 0.195160
0.269745 0.440186 0.198608
0.314148 0.449432 0.202087
0.359772 0.458099 0.205597
0.405365 0.466125 0.209198
0.451202 0.473572 0.212677
0.495544 0.479980 0.215485
0.534241 0.483215 0.214783
0.565674 0.482269 0.209351
0.594086 0.478394 0.201538
0.623383 0.474152 0.194397
0.654968 0.470001 0.188446
0.687988 0.466675 0.183960
0.722015 0.463959 0.180725
0.756805 0.461945 0.178650
0.791168 0.460846 0.177795
0.824188 0.460480 0.177979
0.846588 0.460510 0.178833
0.867004 0.460632 0.179901
0.887207 0.460785 0.181122
0.907288 0.461060 0.182556
0.927124 0.461395 0.184113
0.946564 0.462128 0.186218
0.963562 0.463989 0.191650
0.979462 0.466400 0.197723
0.995514 0.468536 0.202057
1.000000 0.470337 0.204956
0.095795 0.428101 0.199036
0.112946 0.434967 0.200989
0.131531 0.442322 0.203156
0.153076 0.450134 0.205505
0.182892 0.458435 0.208008
0.217010 0.467072 0.210938
0.254547 0.475464 0.213867
0.294250 0.483917 0.217010
0.335724 0.491699 0.220123
0.377625 0.499023 0.223328
0.419250 0.505768 0.226532
0.461395 0.511963 0.229645
0.503601 0.517761 0.232788
0.543823 0.522186 0.234741
0.578156 0.523590 0.232758
0.605469 0.521118 0.225861
0.630768 0.516449 0.216766
0.657745 0.511414 0.208344
0.687134 0.506653 0.201202
0.717865 0.502686 0.195557
0.750458 0.499268 0.191193
0.783417 0.496765 0.188263
0.816620 0.494904 0.186432
0.842957 0.493896 0.185944
0.863434 0.493500 0.186340
0.883911 0.493378 0.187286
0.904266 0.493317 0.188416
0.924469 0.493408 0.189728
0.944366 0.493652 0.191315
0.962799 0.494537 0.194794
0.978943 0.496368 0.201080
0.995270 0.498199 0.205597
1.000000 0.499786 0.208679
0.122406 0.478363 0.218384
0.139282 0.484375 0.220215
0.159180 0.490601 0.222168
0.184052 0.497223 0.224365
0.214111 0.504333 0.226807
0.247192 0.511444 0.229340
0.282135 0.518433 0.232086
0.318726 0.525391 0.234894
0.356964 0.531830 0.237732
0.395569 0.537903 0.240540
0.433960 0.543335 0.243317
0.472839 0.548218 0.245911
0.511993 0.552734 0.248535
0.550934 0.556824 0.251038
0.587463 0.559784 0.252258
0.617615 0.559998 0.249298
0.641846 0.556976 0.241302
0.664673 0.551971 0.231110
0.690063 0.546570 0.221527
0.717377 0.541748 0.213318
0.746796 0.537476 0.206573
0.778198 0.533813 0.201324
0.810486 0.530945 0.197601
0.840851 0.528595 0.194946
0.860626 0.526978 0.193481
0.881104 0.526306 0.193604
0.901703 0.525970 0.194427
0.922150 0.525787 0.195496
0.942322 0.525635 0.196655
0.961609 0.526031 0.199066
0.978455 0.527161 0.204681
0.995056 0.528473 0.209229
1.000000 0.529877 0.212402
0.149109 0.526276 0.237152
0.167328 0.531128 0.238861
0.189880 0.536255 0.240662
0.216125 0.541656 0.242645
0.245239 0.547333 0.244812
0.276489 0.553070 0.247162
0.308807 0.558868 0.249695
0.342499 0.564423 0.252228
0.377380 0.569672 0.254730
0.413269 0.574402 0.257019
0.449158 0.578522 0.259216
0.485321 0.582306 0.261322
0.521667 0.585815 0.263550
0.557953 0.589111 0.265839
0.593536 0.592255 0.268127
0.626160 0.594299 0.268860
0.653229 0.593872 0.265015
0.675232 0.590637 0.256165
0.696899 0.585571 0.244873
0.720673 0.580444 0.234253
0.746704 0.575806 0.225098
0.775391 0.571442 0.217407
0.806366 0.567749 0.211365
0.837341 0.564575 0.206787
0.859497 0.561829 0.203247
0.879211 0.560028 0.201233
0.899475 0.558777 0.200470
0.920105 0.558289 0.201263
0.940491 0.558014 0.202209
0.960266 0.558014 0.203888
0.977936 0.558533 0.208466
0.994812 0.559479 0.212952
1.000000 0.560455 0.215912
0.176056 0.570557 0.255096
0.197418 0.574493 0.256653
0.221130 0.578644 0.258392
0.246918 0.582825 0.260193
0.274506 0.587128 0.262085
0.303558 0.591614 0.264130
0.333801 0.596100 0.266266
0.365417 0.600250 0.268219
0.397705 0.604309 0.270294
0.430969 0.607971 0.272217
0.464539 0.611237 0.274078
0.498230 0.614319 0.275970
0.532166 0.617218 0.277954
0.566010 0.619934 0.279999
0.599365 0.622528 0.282227
0.631683 0.624969 0.284424
0.661652 0.626373 0.284698
0.686188 0.625641 0.280212
0.706665 0.622528 0.270508
0.727539 0.617767 0.258270
0.750092 0.613220 0.246887
0.775848 0.608765 0.236755
0.804565 0.604492 0.228119
0.834229 0.600922 0.221313
0.859833 0.597595 0.215820
0.878784 0.594971 0.211823
0.898407 0.592712 0.208893
0.918457 0.591156 0.207397
0.938904 0.590515 0.207672
0.959015 0.590179 0.208801
0.977356 0.590302 0.212311
0.994537 0.590790 0.216614
1.000000 0.591278 0.219330
0.204102 0.610718 0.272186
0.226074 0.613983 0.273682
0.249634 0.617035 0.275177
0.274658 0.620178 0.276642
0.300873 0.623291 0.278107
0.328186 0.626587 0.279755
0.356812 0.629700 0.281372
0.386383 0.632874 0.282990
0.416809 0.636017 0.284668
0.447784 0.638947 0.286346
0.479034 0.641693 0.288086
0.510529 0.644348 0.289917
0.542389 0.646851 0.291779
0.574402 0.649048 0.293610
0.605774 0.651276 0.295685
0.636536 0.653442 0.298035
0.666840 0.655334 0.300079
0.694397 0.656342 0.300049
0.716827 0.655670 0.295013
0.736908 0.652802 0.284515
0.756836 0.648804 0.271576
0.779297 0.644806 0.259369
0.805115 0.640686 0.248322
0.833313 0.636841 0.238953
0.861572 0.633392 0.231262
0.879578 0.630310 0.225220
0.898499 0.627563 0.220490
0.917999 0.625336 0.216858
0.937897 0.623627 0.214539
0.957855 0.622620 0.213776
0.976807 0.622406 0.216278
0.994263 0.622345 0.220215
1.000000 0.622498 0.222626
0.230347 0.647064 0.288269
0.252258 0.649445 0.289459
0.275513 0.651459 0.290466
0.299713 0.653625 0.291626
0.324829 0.655914 0.292847
0.350739 0.658264 0.294098
0.377625 0.660583 0.295441
0.405457 0.663116 0.296875
0.433960 0.665619 0.298370
0.463196 0.668060 0.299866
0.492645 0.670349 0.301453
0.522156 0.672699 0.303284
0.552185 0.674866 0.305023
0.582703 0.676758 0.306824
0.612579 0.678711 0.308838
0.641876 0.680603 0.311035
0.671051 0.682312 0.313385
0.699493 0.683838 0.315460
0.724731 0.684753 0.315216
0.746033 0.684235 0.309601
0.765411 0.682068 0.298615
0.785614 0.678772 0.285004
0.808167 0.675446 0.272095
0.834290 0.671722 0.260223
0.861725 0.668488 0.250153
0.881592 0.665314 0.241699
0.899689 0.662537 0.234924
0.918549 0.659943 0.229401
0.937775 0.657806 0.224976
0.957336 0.656036 0.221649
0.976227 0.654816 0.221191
0.993988 0.654083 0.223755
1.000000 0.653870 0.225800
0.254486 0.679443 0.302826
0.276337 0.681152 0.303802
0.298798 0.682709 0.304688
0.322174 0.684204 0.305573
0.346161 0.685944 0.306671
0.370728 0.687775 0.307831
0.396149 0.689636 0.309052
0.422485 0.691467 0.310211
0.449402 0.693573 0.311584
0.476898 0.695770 0.313049
0.505035 0.697662 0.314484
0.533112 0.699677 0.316162
0.561615 0.701660 0.317932
0.590668 0.703369 0.319733
0.619354 0.705048 0.321625
0.647522 0.706726 0.323914
0.675354 0.708282 0.326233
0.703125 0.709717 0.328644
0.729767 0.711090 0.330841
0.753479 0.712067 0.330444
0.774078 0.711914 0.324432
0.793457 0.710327 0.312958
0.813843 0.707855 0.298859
0.837250 0.705017 0.285126
0.862854 0.702179 0.272644
0.884888 0.699402 0.261688
0.901825 0.696869 0.252625
0.919861 0.694275 0.244934
0.938446 0.692047 0.238525
0.957428 0.690033 0.233032
0.976074 0.688141 0.229736
0.993835 0.686401 0.229187
1.000000 0.685486 0.229095
0.276062 0.708862 0.316406
0.297211 0.710297 0.317291
0.319214 0.711517 0.318146
0.341827 0.712708 0.318970
0.364899 0.714020 0.319885
0.388275 0.715546 0.321014
0.412567 0.717010 0.322083
0.437836 0.718536 0.323151
0.463593 0.720184 0.324402
0.489563 0.722107 0.325836
0.516266 0.723938 0.327301
0.543365 0.725677 0.328888
0.570801 0.727386 0.330627
0.598450 0.729034 0.332489
0.625946 0.730591 0.334412
0.653290 0.732025 0.336578
0.680115 0.733368 0.338989
0.706818 0.734680 0.341461
0.733154 0.735962 0.344116
0.758362 0.737274 0.346436
0.781250 0.738312 0.345764
0.801636 0.738556 0.339478
0.821472 0.737640 0.327667
0.842102 0.736115 0.313232
0.865784 0.734039 0.298798
0.889496 0.732025 0.285706
0.905121 0.729767 0.273956
0.922058 0.727661 0.263947
0.939850 0.725586 0.255249
0.958130 0.723450 0.247467
0.976349 0.721466 0.241852
0.993866 0.719208 0.238495
1.000000 0.717590 0.235596
0.294769 0.736359 0.329498
0.315521 0.737549 0.330353
0.337097 0.738495 0.331085
0.359070 0.739532 0.331940
0.381042 0.740662 0.332825
0.403595 0.741943 0.333862
0.427032 0.743164 0.334839
0.451447 0.744446 0.335907
0.476227 0.745911 0.337036
0.501312 0.747528 0.338379
0.527008 0.749176 0.339844
0.553101 0.750793 0.341431
0.579529 0.752411 0.343170
0.606079 0.754028 0.345123
0.632477 0.755432 0.347198
0.658844 0.756714 0.349335
0.684906 0.757904 0.351715
0.710846 0.759125 0.354218
0.736511 0.760254 0.356934
0.761780 0.761444 0.359924
0.786133 0.762878 0.362457
0.808624 0.764038 0.361786
0.829315 0.764618 0.355286
0.849304 0.764557 0.343445
0.870483 0.763855 0.328461
0.893524 0.762787 0.313629
0.909760 0.761230 0.299591
0.925293 0.759705 0.286987
0.941956 0.757996 0.275604
0.959412 0.756165 0.265472
0.977020 0.754181 0.257141
0.994171 0.751892 0.251434
1.000000 0.749908 0.245941
0.311035 0.762329 0.342224
0.331451 0.763397 0.343018
0.352570 0.764313 0.343811
0.373779 0.765259 0.344574
0.395233 0.766388 0.345551
0.417175 0.767548 0.346527
0.439972 0.768616 0.347504
0.463562 0.769714 0.348450
0.487671 0.770996 0.349609
0.512146 0.772430 0.350922
0.536957 0.773956 0.352325
0.562225 0.775391 0.353943
0.587799 0.776855 0.355743
0.613525 0.778412 0.357727
0.639252 0.779785 0.359894
0.664795 0.781036 0.362152
0.690125 0.782135 0.364655
0.715210 0.783325 0.367279
0.740204 0.784332 0.369995
0.765076 0.785370 0.373016
0.789673 0.786682 0.376587
0.813629 0.788086 0.379578
0.836060 0.789520 0.378998
0.856964 0.790588 0.372589
0.876984 0.791351 0.360687
0.898163 0.791382 0.345245
0.915405 0.790985 0.329651
0.929626 0.790192 0.314667
0.944946 0.789154 0.300568
0.961212 0.787872 0.287598
0.978088 0.786072 0.276093
0.994629 0.784058 0.267944
1.000000 0.781921 0.259949
0.325714 0.787445 0.354767
0.346008 0.788300 0.355530
0.366669 0.789276 0.356323
0.387360 0.790253 0.357178
0.408325 0.791351 0.358124
0.429779 0.792480 0.359192
0.452301 0.793457 0.360138
0.475220 0.794556 0.361145
0.498688 0.795685 0.362244
0.522400 0.796936 0.363556
0.546661 0.798340 0.365021
0.571167 0.799713 0.366638
0.596100 0.801086 0.368469
0.621155 0.802521 0.370514
0.646271 0.803894 0.372833
0.671204 0.805084 0.375214
0.695892 0.806213 0.377747
0.720276 0.807312 0.380524
0.744415 0.808289 0.383453
0.768982 0.809235 0.386566
0.793488 0.810303 0.390198
0.817566 0.811676 0.394440
0.841370 0.813354 0.398163
0.863647 0.815033 0.397888
0.884430 0.816742 0.391724
0.904205 0.818115 0.379669
0.922119 0.818787 0.363525
0.934937 0.819061 0.346893
0.948792 0.818909 0.330383
0.963654 0.818146 0.314209
0.979553 0.817017 0.299286
0.995209 0.815186 0.288116
1.000000 0.813232 0.277496
0.339539 0.811981 0.367279
0.359680 0.812866 0.368042
0.379730 0.813843 0.368958
0.400055 0.814911 0.369904
0.420929 0.815979 0.370819
0.442383 0.816986 0.371857
0.464447 0.818024 0.372772
0.486877 0.819000 0.373840
0.509735 0.820160 0.375061
0.532928 0.821350 0.376404
0.556610 0.822540 0.377930
0.580566 0.823914 0.379639
0.604797 0.825226 0.381561
0.629303 0.826630 0.383728
0.653778 0.827972 0.386139
0.678192 0.829163 0.388641
0.702240 0.830200 0.391327
0.726044 0.831268 0.394226
0.749634 0.832275 0.397278
0.773621 0.833099 0.400543
0.797821 0.834106 0.404358
0.821808 0.835388 0.408905
0.845703 0.836945 0.414154
0.869171 0.838776 0.418793
0.891144 0.840851 0.418976
0.911346 0.843018 0.412903
0.929565 0.844940 0.400391
0.941071 0.846222 0.383240
0.953400 0.846863 0.364716
