3DLUTKit/Tests/3DLUTKitTests/Resources/Kodachrome 25.cube
TITLE "Kodachrome 25"
LUT_3D_SIZE 9
0.000244 0.000244 0.000244
0.037994 0.007263 0.007263
0.119293 0.018127 0.018219
0.275269 0.027893 0.028015
0.581177 0.033112 0.033264
0.837280 0.063995 0.064240
0.908386 0.151184 0.151886
0.956299 0.150818 0.151367
1.000000 0.131531 0.130432
0.000000 0.047333 0.019318
0.056854 0.057739 0.029236
0.179108 0.077820 0.045746
0.396210 0.090515 0.054565
0.675568 0.101929 0.063629
0.846283 0.135376 0.095093
0.905609 0.202759 0.156769
0.955139 0.218628 0.167267
1.000000 0.211304 0.155609
0.000000 0.132874 0.069305
0.072601 0.155396 0.076050
0.223145 0.191101 0.093292
0.440125 0.215515 0.098175
0.669556 0.230896 0.108398
0.823547 0.249054 0.125671
0.898590 0.270477 0.144104
0.953033 0.299591 0.173859
1.000000 0.306061 0.177856
0.025848 0.280975 0.140106
0.110382 0.313934 0.149109
0.274628 0.360260 0.165131
0.470703 0.392517 0.172577
0.623077 0.389069 0.158173
0.777802 0.390747 0.159943
0.875732 0.395233 0.167053
0.949951 0.401978 0.179199
1.000000 0.413177 0.196930
0.122406 0.478363 0.218384
0.214111 0.504333 0.226807
0.356964 0.531830 0.237732
0.511993 0.552734 0.248535
0.641846 0.556976 0.241302
0.746796 0.537476 0.206573
0.860626 0.526978 0.193481
0.942322 0.525635 0.196655
1.000000 0.529877 0.212402
0.230347 0.647064 0.288269
0.324829 0.655914 0.292847
0.433960 0.665619 0.298370
0.552185 0.674866 0.305023
0.671051 0.682312 0.313385
0.765411 0.682068 0.298615
0.861725 0.668488 0.250153
0.937775 0.657806 0.224976
1.000000 0.653870 0.225800
0.311035 0.762329 0.342224
0.395233 0.766388 0.345551
0.487671 0.770996 0.349609
0.587799 0.776855 0.355743
0.690125 0.782135 0.364655
0.789673 0.786682 0.376587
0.876984 0.791351 0.360687
0.944946 0.789154 0.300568
1.000000 0.781921 0.259949
0.366119 0.856720 0.388672
0.446960 0.862640 0.394592
0.533722 0.868622 0.401398
0.624664 0.873688 0.409180
0.718262 0.878448 0.420258
0.809418 0.882324 0.435364
0.901886 0.887970 0.461060
0.964233 0.897827 0.444763
1.000000 0.901459 0.354187
0.428467 0.942749 0.430634
0.511627 0.949036 0.439728
0.595062 0.956360 0.450073
0.681274 0.963776 0.464630
0.766663 0.971863 0.484985
0.847900 0.978516 0.510193
0.927826 0.982697 0.544067
0.980469 0.988251 0.574219
1.000000 0.997009 0.512329
0.000000 0.004883 0.031494
0.026184 0.004517 0.035706
0.086426 0.015686 0.048309
0.221313 0.029358 0.061066
0.505920 0.034698 0.065308
0.817963 0.053467 0.084229
0.909058 0.138977 0.178680
0.956573 0.150299 0.194885
1.000000 0.129120 0.174835
0.000000 0.042236 0.047058
0.040192 0.048584 0.055725
0.142395 0.066742 0.071564
0.347198 0.079987 0.082245
0.629364 0.088867 0.088318
0.837830 0.120483 0.118530
0.906219 0.187439 0.186005
0.955444 0.209839 0.208008
1.000000 0.204498 0.201508
0.000000 0.124390 0.094269
0.054596 0.142609 0.103912
0.183502 0.174347 0.122101
0.402191 0.197906 0.132233
0.636414 0.212860 0.142365
0.810089 0.231781 0.159943
0.895172 0.252716 0.179688
0.952972 0.282196 0.211639
1.000000 0.295135 0.225250
0.009033 0.266327 0.162659
0.091370 0.294891 0.172974
0.235840 0.342010 0.191528
0.439453 0.376434 0.204468
0.593597 0.371063 0.196564
0.752136 0.374237 0.201630
0.872345 0.379150 0.210297
0.949097 0.385986 0.222595
1.000000 0.401367 0.247803
0.103760 0.454041 0.235748
0.181122 0.484955 0.248077
0.326385 0.518799 0.262054
0.490448 0.543640 0.275146
0.624054 0.546814 0.273743
0.726410 0.522736 0.248413
0.855499 0.512512 0.241302
0.941223 0.512512 0.247589
1.000000 0.518524 0.267639
0.203278 0.628723 0.308228
0.297241 0.643158 0.315430
0.411865 0.656952 0.322754
0.536377 0.668884 0.330780
0.659546 0.677582 0.340240
0.754730 0.674988 0.332275
0.847137 0.657166 0.296600
0.936920 0.645905 0.279358
1.000000 0.643158 0.285767
0.291168 0.750824 0.366119
0.376434 0.757385 0.370422
0.471344 0.764587 0.375641
0.573914 0.772217 0.382690
0.679291 0.779022 0.392303
0.781799 0.784393 0.404968
0.868652 0.787201 0.397827
0.944092 0.781647 0.353333
1.000000 0.773071 0.322144
0.353516 0.853973 0.420715
0.434509 0.858704 0.424744
0.521881 0.864471 0.430664
0.614777 0.870880 0.438934
0.709747 0.877197 0.450409
0.803558 0.882935 0.466705
0.897583 0.888824 0.493256
0.963989 0.896118 0.486633
1.000000 0.896454 0.412689
0.423126 0.946320 0.468658
0.505615 0.951996 0.476746
0.591400 0.959137 0.487793
0.678589 0.967407 0.502777
0.764435 0.975952 0.522308
0.847504 0.982666 0.548065
0.924866 0.986969 0.580688
0.979980 0.991364 0.608276
1.000000 0.997620 0.557953
0.000000 0.015289 0.074005
0.018616 0.013306 0.078583
0.054352 0.013611 0.090759
0.150116 0.018402 0.111755
0.413879 0.041748 0.122498
0.778656 0.054169 0.124969
0.911407 0.127594 0.208466
0.957458 0.153870 0.248779
1.000000 0.135071 0.235443
0.000000 0.050201 0.092590
0.017273 0.051758 0.100464
0.081299 0.050171 0.117798
0.261536 0.073486 0.137268
0.557678 0.083496 0.141296
0.815918 0.109009 0.158203
0.908478 0.173279 0.223572
0.956299 0.208038 0.263641
1.000000 0.206848 0.264679
0.000000 0.118927 0.133057
0.018280 0.130096 0.145599
0.120636 0.151672 0.167358
0.333923 0.179962 0.189850
0.585846 0.195862 0.199249
0.776215 0.215515 0.213928
0.889526 0.238617 0.234222
0.953400 0.267639 0.263306
1.000000 0.292358 0.289764
0.000000 0.253754 0.206055
0.065430 0.277588 0.219666
0.171112 0.316956 0.242889
0.373413 0.352631 0.262604
0.550049 0.351624 0.257477
0.716888 0.356293 0.262238
0.857178 0.361267 0.269287
0.944458 0.369171 0.280487
1.000000 0.390503 0.309418
0.083679 0.434082 0.278900
0.149109 0.461578 0.291199
0.271484 0.496704 0.306702
0.441833 0.524414 0.320465
0.587097 0.529663 0.322968
0.695801 0.504028 0.303741
0.831940 0.496338 0.301758
0.937866 0.497192 0.309174
1.000000 0.506165 0.331360
0.181152 0.606903 0.341492
0.258728 0.623749 0.348419
0.376404 0.642395 0.356537
0.508240 0.657898 0.364899
0.637268 0.668640 0.374725
0.737305 0.666046 0.374146
0.828583 0.644348 0.351288
0.935059 0.632568 0.341858
1.000000 0.632660 0.354553
0.267303 0.737061 0.395111
0.351379 0.745331 0.398865
0.448975 0.755890 0.405090
0.556549 0.766052 0.412933
0.665192 0.774750 0.423187
0.771118 0.781799 0.436981
0.859833 0.782959 0.438904
0.942566 0.773346 0.410400
1.000000 0.763763 0.390472
0.337097 0.845795 0.449646
0.418274 0.851868 0.453766
0.507141 0.859161 0.460358
0.603363 0.867645 0.470001
0.700775 0.875946 0.482452
0.797272 0.883820 0.500519
0.892548 0.892090 0.529846
0.963440 0.897644 0.533936
1.000000 0.891235 0.474091
0.414337 0.947845 0.506683
0.497101 0.954468 0.514008
0.583038 0.961365 0.524475
0.673035 0.970367 0.540253
0.761597 0.980255 0.560730
0.844269 0.987091 0.585571
0.921539 0.990662 0.616302
0.979462 0.994904 0.643951
1.000000 0.999878 0.606812
0.000000 0.027344 0.122894
0.017273 0.026093 0.124695
0.045319 0.020966 0.132019
0.093445 0.022156 0.149200
0.299042 0.043243 0.177124
0.701630 0.057434 0.178680
0.916321 0.110657 0.231964
0.959534 0.166107 0.315338
1.000000 0.149811 0.311707
0.000000 0.061096 0.144958
0.017273 0.062408 0.150360
0.043030 0.053375 0.164215
0.163239 0.057312 0.188354
0.457001 0.084320 0.207458
0.769806 0.106262 0.216064
0.913666 0.155029 0.261383
0.958405 0.212555 0.329315
1.000000 0.214478 0.338379
0.000000 0.120605 0.187103
0.017273 0.125946 0.195160
0.069946 0.132507 0.213928
0.230591 0.152161 0.244080
0.519379 0.177032 0.265167
0.743286 0.201111 0.280304
0.882599 0.230225 0.303345
0.954620 0.260864 0.331360
1.000000 0.296753 0.367065
0.000000 0.245544 0.271149
0.019348 0.261017 0.285004
0.117767 0.286499 0.306885
0.275055 0.323090 0.338440
0.494385 0.339294 0.346252
0.677429 0.346527 0.348663
0.826172 0.354492 0.353912
0.939209 0.366455 0.364197
1.000000 0.390747 0.389557
0.058167 0.412964 0.355011
0.111084 0.433014 0.367218
0.191895 0.463654 0.386230
0.343384 0.495148 0.405243
0.513123 0.508423 0.410553
0.652435 0.490906 0.390778
0.800415 0.488800 0.390106
0.931915 0.490936 0.395081
1.000000 0.502838 0.413025
0.147430 0.579956 0.416687
0.202301 0.597351 0.422852
0.300964 0.618042 0.430511
0.437897 0.637848 0.438171
0.577972 0.651611 0.445618
0.695404 0.652802 0.446014
0.800934 0.632263 0.427429
0.931274 0.624420 0.424469
1.000000 0.628235 0.439117
0.225952 0.720154 0.454559
0.303955 0.730560 0.455078
0.403503 0.743530 0.458527
0.518677 0.756500 0.464600
0.634979 0.767761 0.473114
0.746979 0.776703 0.485168
0.842590 0.779358 0.493774
0.936279 0.767334 0.480438
1.000000 0.757385 0.470825
0.311493 0.837250 0.490906
0.392731 0.845337 0.493683
0.484955 0.854675 0.499084
0.586243 0.865265 0.508636
0.688354 0.875946 0.521973
0.787292 0.885681 0.540436
0.885406 0.894928 0.569366
0.961243 0.899780 0.585419
1.000000 0.890320 0.545288
0.397888 0.947479 0.543549
0.484436 0.955811 0.551514
0.573669 0.963745 0.561829
0.667206 0.973450 0.577271
0.758026 0.984100 0.599030
0.840118 0.990601 0.622375
0.917725 0.995087 0.653931
0.979248 0.998932 0.681610
1.000000 1.000000 0.657104
0.000000 0.037201 0.167969
0.017273 0.036285 0.168274
0.039185 0.033966 0.171143
0.079315 0.027985 0.184143
0.194183 0.030090 0.209900
0.574768 0.061646 0.230499
0.903625 0.099060 0.258057
0.963776 0.183502 0.380920
1.000000 0.171631 0.393738
0.000000 0.070770 0.193787
0.017273 0.071228 0.196381
0.039185 0.069916 0.206299
0.111908 0.050415 0.227020
0.337708 0.078339 0.255951
0.702209 0.102539 0.268097
0.913391 0.149292 0.308075
0.962738 0.224579 0.397827
1.000000 0.230347 0.419525
0.000000 0.128784 0.244751
0.017273 0.131958 0.250092
0.039215 0.136566 0.265564
0.153290 0.142487 0.294647
0.430511 0.159973 0.319916
0.715332 0.184021 0.335083
0.875488 0.221771 0.366760
0.957367 0.261017 0.404877
1.000000 0.307526 0.450775
0.000000 0.240936 0.331909
0.017273 0.249847 0.341309
0.076447 0.266296 0.360138
0.192200 0.295288 0.391693
0.421265 0.325256 0.422028
0.642090 0.338348 0.431122
0.802124 0.350098 0.438293
0.934937 0.367126 0.451141
1.000000 0.394135 0.474854
0.025452 0.398987 0.430267
0.076447 0.410919 0.439697
0.143433 0.433258 0.457977
0.246857 0.463043 0.482086
0.424622 0.485748 0.498810
0.605682 0.485748 0.492645
0.766876 0.485870 0.489563
0.913727 0.491241 0.492767
1.000000 0.504242 0.504761
0.109589 0.552704 0.505127
0.154663 0.565643 0.511993
0.217651 0.584320 0.523254
0.330048 0.605743 0.535675
0.478516 0.623627 0.545349
0.624695 0.632050 0.546234
0.763855 0.622864 0.527527
0.907928 0.623352 0.527649
1.000000 0.629089 0.536072
0.179688 0.693115 0.550476
0.230194 0.704468 0.551147
0.314362 0.719025 0.553741
0.430298 0.734924 0.558594
0.559174 0.749603 0.564575
0.686188 0.761353 0.571808
0.801971 0.768951 0.577271
0.915039 0.762482 0.569031
1.000000 0.758362 0.567719
0.256531 0.821625 0.568634
0.337891 0.833069 0.568634
0.434052 0.845642 0.569427
0.541779 0.858551 0.573730
0.653625 0.871216 0.583038
0.761688 0.882812 0.596863
0.865875 0.893616 0.619934
0.950256 0.899933 0.642700
1.000000 0.891357 0.624817
0.376404 0.942841 0.586761
0.471375 0.955231 0.593872
0.565979 0.966431 0.603943
0.662750 0.977356 0.617920
0.754120 0.987274 0.637665
0.835724 0.993896 0.660370
0.914703 0.998566 0.691254
0.977081 1.000000 0.718719
1.000000 1.000000 0.707550
0.000000 0.043518 0.209015
0.017273 0.044006 0.210632
0.039185 0.042938 0.211884
0.069672 0.030731 0.219208
0.151764 0.031372 0.243103
0.439606 0.063019 0.273285
0.860321 0.094025 0.285492
0.970703 0.195587 0.419983
1.000000 0.203918 0.471222
0.000000 0.076508 0.237274
0.017273 0.077332 0.239868
0.039185 0.077179 0.246704
0.086823 0.051758 0.262268
0.257080 0.062622 0.297729
0.612732 0.098694 0.312653
0.902344 0.145660 0.343567
0.970001 0.239136 0.452606
1.000000 0.258392 0.501526
0.000000 0.131897 0.291840
0.017273 0.134705 0.296600
0.039185 0.138885 0.308044
0.111206 0.138702 0.337433
0.336151 0.154877 0.375519
0.665955 0.174316 0.385193
0.868378 0.212555 0.413971
0.961212 0.264374 0.469879
1.000000 0.325256 0.533325
0.000000 0.231201 0.374634
0.017273 0.238770 0.383270
0.040344 0.251099 0.399261
0.147736 0.275360 0.430389
0.338562 0.304993 0.467224
0.592407 0.329224 0.490265
0.779633 0.348907 0.509247
0.918671 0.372986 0.532532
1.000000 0.402954 0.560699
0.000000 0.387970 0.483398
0.041168 0.397644 0.493530
0.110077 0.414459 0.509155
0.197174 0.440765 0.533112
0.344818 0.467072 0.556946
0.540894 0.484833 0.573120
0.728119 0.488342 0.578064
0.887482 0.495636 0.584930
1.000000 0.512421 0.599457
0.084808 0.538544 0.570679
0.123871 0.547058 0.577393
0.176514 0.561646 0.589691
0.252594 0.581512 0.605896
0.389557 0.600769 0.620239
0.550262 0.614929 0.629791
0.721161 0.619019 0.627472
0.880371 0.624054 0.629120
1.000000 0.635468 0.638550
0.142456 0.672180 0.633789
0.183594 0.680939 0.637695
0.237274 0.693268 0.643890
0.329224 0.709167 0.652740
0.457642 0.725128 0.661774
0.598938 0.739746 0.669891
0.741364 0.752258 0.674591
0.888092 0.756531 0.668091
1.000000 0.762787 0.674255
0.202759 0.799530 0.667816
0.256561 0.812592 0.668457
0.345886 0.827271 0.668884
0.455048 0.842316 0.671173
0.575470 0.856903 0.677155
0.699860 0.870941 0.685211
0.818481 0.884064 0.697479
0.924042 0.894470 0.715424
1.000000 0.891785 0.714172
0.318024 0.932281 0.670532
0.428619 0.951324 0.667389
0.538940 0.967560 0.668396
0.644196 0.980103 0.674377
0.736572 0.988556 0.687042
0.821899 0.994934 0.705536
0.904144 0.999878 0.731567
0.971039 1.000000 0.758667
1.000000 1.000000 0.762512
0.000000 0.047852 0.250183
0.017273 0.048218 0.252411
0.039185 0.047913 0.254791
0.061462 0.042358 0.261353
0.135406 0.032349 0.282074
0.381958 0.057739 0.321106
0.796997 0.093719 0.321381
0.979614 0.191681 0.420197
1.000000 0.249786 0.535187
0.000000 0.080261 0.279419
0.017273 0.080780 0.282410
0.039185 0.081604 0.288025
0.063599 0.069031 0.304535
0.207642 0.054596 0.336975
0.546722 0.098145 0.371826
0.870605 0.143005 0.379517
0.979309 0.240356 0.474792
1.000000 0.298340 0.570862
0.000000 0.133850 0.335876
0.017273 0.136078 0.340546
0.039185 0.140167 0.350311
0.070709 0.139038 0.375244
0.254822 0.148163 0.418915
0.595428 0.173828 0.447235
0.843872 0.209259 0.459259
0.960327 0.265869 0.514313
1.000000 0.338226 0.595398
0.000000 0.226532 0.418579
0.017273 0.231384 0.424591
0.039185 0.239838 0.435577
0.107025 0.254333 0.459625
0.260162 0.283112 0.501221
0.519379 0.314606 0.538055
0.738495 0.343567 0.559296
0.890747 0.378387 0.593933
1.000000 0.418671 0.636780
0.000000 0.372711 0.522705
0.017303 0.379059 0.530243
0.068146 0.392700 0.546051
0.159027 0.417664 0.570831
0.277557 0.446777 0.599731
0.467743 0.469757 0.623810
0.666168 0.487671 0.640198
0.847290 0.503174 0.659637
0.995056 0.526031 0.684265
0.062378 0.524048 0.617828
0.098999 0.531403 0.625214
0.146606 0.544373 0.638153
0.214264 0.563416 0.656036
0.321716 0.582825 0.673126
0.475494 0.599670 0.687531
0.649109 0.613342 0.699615
0.838196 0.625061 0.712860
0.997345 0.643066 0.729034
0.118195 0.658875 0.692078
0.154083 0.666016 0.697998
0.199005 0.676208 0.706604
0.262024 0.690643 0.718292
0.374054 0.706329 0.730835
0.514832 0.721405 0.742432
0.671783 0.735626 0.752380
0.849792 0.750824 0.760529
1.000000 0.766876 0.771820
0.160706 0.781860 0.746124
0.205780 0.794586 0.751282
0.262634 0.808838 0.757538
0.355042 0.823853 0.764374
0.473541 0.838776 0.772766
0.607086 0.853638 0.782166
0.744781 0.868805 0.791351
0.880219 0.883179 0.803864
1.000000 0.891388 0.809113
0.230255 0.912628 0.780334
0.332703 0.937897 0.776794
0.454132 0.959595 0.776245
0.566498 0.972748 0.776459
0.665283 0.981018 0.781494
0.761261 0.988892 0.790588
0.858124 0.996704 0.803680
0.944336 1.000000 0.827789
1.000000 1.000000 0.849365
0.000000 0.052094 0.295197
0.017273 0.052246 0.296814
0.039185 0.052490 0.299469
0.061005 0.050629 0.306763
0.131805 0.033417 0.327454
0.391357 0.055969 0.375397
0.796844 0.103699 0.389557
0.985260 0.199829 0.447418
1.000000 0.312561 0.591400
0.000000 0.083954 0.324036
0.017273 0.084717 0.327271
0.039185 0.086060 0.332642
0.061005 0.083130 0.347595
0.171539 0.054535 0.378906
0.504456 0.095184 0.429474
0.845245 0.149109 0.448578
0.985260 0.225433 0.494873
1.000000 0.335907 0.614471
0.000000 0.136383 0.381561
0.017273 0.138123 0.386017
0.039185 0.141998 0.394867
0.061005 0.144287 0.414062
0.189117 0.143311 0.457825
0.521179 0.169861 0.502686
0.801025 0.211426 0.522797
0.942963 0.266022 0.554291
1.000000 0.335907 0.627289
0.000000 0.228210 0.468170
0.017273 0.230530 0.472046
0.039185 0.236938 0.480835
0.063477 0.246246 0.498138
0.197510 0.263184 0.532227
0.443970 0.293274 0.575348
0.684967 0.329590 0.605438
0.849121 0.376465 0.636993
0.978882 0.428375 0.685608
0.000000 0.361237 0.562836
0.017273 0.363983 0.567383
0.039185 0.371948 0.578278
0.115265 0.390076 0.600067
0.225616 0.417053 0.628601
0.399506 0.445282 0.660492
0.603119 0.471588 0.687195
0.790436 0.500153 0.707581
0.957428 0.534729 0.741058
0.018616 0.502716 0.654877
0.062866 0.508606 0.662415
0.113220 0.519043 0.674072
0.177673 0.536469 0.691559
0.267578 0.558594 0.712341
0.411041 0.580353 0.732147
0.582245 0.598053 0.749268
0.771179 0.618317 0.765594
0.959534 0.648102 0.793304
0.091827 0.637451 0.732941
0.125671 0.645752 0.741730
0.165741 0.656677 0.752960
0.220856 0.672272 0.767517
0.308960 0.689636 0.782990
0.445007 0.705292 0.796722
0.602966 0.720673 0.809570
0.782684 0.738708 0.823120
0.973663 0.767029 0.845978
0.125031 0.765137 0.801971
0.164001 0.779724 0.813507
0.209869 0.794708 0.825592
0.271393 0.809357 0.836670
0.379913 0.824707 0.848450
0.516602 0.839722 0.860535
0.666473 0.854736 0.871918
0.825714 0.870026 0.883667
0.991577 0.890900 0.897980
0.163849 0.895111 0.865448
0.230286 0.924072 0.878357
0.324341 0.949493 0.890411
0.431152 0.961456 0.895538
0.537781 0.970764 0.900696
0.649506 0.980927 0.907684
0.764618 0.990173 0.914520
0.885712 0.997253 0.925720
1.000000 1.000000 0.944885
0.000000 0.054749 0.340302
0.017273 0.056335 0.342651
0.039185 0.057373 0.346069
0.061005 0.057312 0.352997
0.125580 0.034424 0.372894
0.404724 0.054749 0.432312
0.823395 0.117645 0.462830
0.985321 0.231812 0.533020
1.000000 0.351105 0.637177
0.000000 0.087341 0.370270
0.017273 0.088562 0.373444
0.039185 0.090027 0.378845
0.061005 0.090210 0.391418
0.141144 0.055481 0.421051
0.463074 0.092651 0.486267
0.823914 0.153564 0.518616
0.976288 0.225189 0.560608
1.000000 0.333527 0.636597
0.000000 0.138214 0.427216
0.017273 0.139496 0.431366
0.039185 0.142761 0.439117
0.061005 0.146881 0.454834
0.146942 0.141449 0.495758
0.448303 0.166656 0.553558
0.753113 0.214111 0.583649
0.905151 0.266846 0.612335
0.988647 0.333801 0.657318
0.000000 0.228210 0.516022
0.017273 0.229218 0.519165
0.039185 0.233948 0.526306
0.061035 0.242523 0.539154
0.158722 0.253723 0.569977
0.380127 0.281494 0.615997
0.631195 0.318024 0.647461
0.809082 0.366302 0.679443
0.935852 0.428131 0.717560
0.000000 0.350159 0.603027
0.017273 0.352020 0.606201
0.039185 0.357422 0.613220
0.063660 0.368347 0.628174
0.189423 0.392456 0.655579
0.349304 0.422699 0.689514
0.549896 0.453491 0.722412
0.744965 0.488159 0.748169
0.903870 0.534241 0.774261
0.000031 0.483704 0.688385
0.017273 0.488678 0.695923
0.054260 0.497284 0.706879
0.141327 0.513458 0.722534
0.233490 0.535370 0.742554
0.367950 0.560150 0.764252
0.533539 0.583679 0.786255
0.723175 0.609863 0.807892
0.903290 0.646088 0.828583
0.055054 0.616272 0.768616
0.090820 0.624786 0.777802
0.131744 0.635986 0.788574
0.188293 0.652740 0.802673
0.269562 0.672699 0.819427
0.402710 0.692780 0.836426
0.558777 0.712738 0.853119
0.740570 0.733154 0.867889
0.925354 0.765228 0.886383
0.088318 0.745636 0.841614
0.125366 0.760986 0.854828
0.169250 0.778687 0.868896
0.227356 0.797394 0.883179
0.321686 0.817230 0.898895
0.464966 0.834991 0.912872
0.621582 0.850311 0.924896
0.789459 0.866028 0.936340
0.959045 0.890198 0.951172
0.109161 0.881744 0.919250
0.168427 0.916321 0.941925
0.237671 0.945557 0.960815
0.327209 0.958405 0.970276
0.437622 0.968384 0.977386
0.561066 0.979370 0.983063
0.690277 0.986786 0.988495
0.835480 0.993683 0.995239
0.998199 1.000000 1.000000
