3DLUTKit/Tests/3DLUTKitTests/Resources/Kodachrome 25.cube
TITLE "Kodachrome 25"
LUT_3D_SIZE 5
0.000244 0.000244 0.000244
0.119293 0.018127 0.018219
0.581177 0.033112 0.033264
0.908386 0.151184 0.151886
1.000000 0.131531 0.130432
0.000000 0.132874 0.069305
0.223145 0.191101 0.093292
0.669556 0.230896 0.108398
0.898590 0.270477 0.144104
1.000000 0.306061 0.177856
0.122406 0.478363 0.218384
0.356964 0.531830 0.237732
0.641846 0.556976 0.241302
0.860626 0.526978 0.193481
1.000000 0.529877 0.212402
0.311035 0.762329 0.342224
0.487671 0.770996 0.349609
0.690125 0.782135 0.364655
0.876984 0.791351 0.360687
1.000000 0.781921 0.259949
0.428467 0.942749 0.430634
0.595062 0.956360 0.450073
0.766663 0.971863 0.484985
0.927826 0.982697 0.544067
1.000000 0.997009 0.512329
0.000000 0.015289 0.074005
0.054352 0.013611 0.090759
0.413879 0.041748 0.122498
0.911407 0.127594 0.208466
1.000000 0.135071 0.235443
0.000000 0.118927 0.133057
0.120636 0.151672 0.167358
0.585846 0.195862 0.199249
0.889526 0.238617 0.234222
1.000000 0.292358 0.289764
0.083679 0.434082 0.278900
0.271484 0.496704 0.306702
0.587097 0.529663 0.322968
0.831940 0.496338 0.301758
1.000000 0.506165 0.331360
0.267303 0.737061 0.395111
0.448975 0.755890 0.405090
0.665192 0.774750 0.423187
0.859833 0.782959 0.438904
1.000000 0.763763 0.390472
0.414337 0.947845 0.506683
0.583038 0.961365 0.524475
0.761597 0.980255 0.560730
0.921539 0.990662 0.616302
1.000000 0.999878 0.606812
0.000000 0.037201 0.167969
0.039185 0.033966 0.171143
0.194183 0.030090 0.209900
0.903625 0.099060 0.258057
1.000000 0.171631 0.393738
0.000000 0.128784 0.244751
0.039215 0.136566 0.265564
0.430511 0.159973 0.319916
0.875488 0.221771 0.366760
1.000000 0.307526 0.450775
0.025452 0.398987 0.430267
0.143433 0.433258 0.457977
0.424622 0.485748 0.498810
0.766876 0.485870 0.489563
1.000000 0.504242 0.504761
0.179688 0.693115 0.550476
0.314362 0.719025 0.553741
0.559174 0.749603 0.564575
0.801971 0.768951 0.577271
1.000000 0.758362 0.567719
0.376404 0.942841 0.586761
0.565979 0.966431 0.603943
0.754120 0.987274 0.637665
0.914703 0.998566 0.691254
1.000000 1.000000 0.707550
0.000000 0.047852 0.250183
0.039185 0.047913 0.254791
0.135406 0.032349 0.282074
0.796997 0.093719 0.321381
1.000000 0.249786 0.535187
0.000000 0.133850 0.335876
0.039185 0.140167 0.350311
0.254822 0.148163 0.418915
0.843872 0.209259 0.459259
1.000000 0.338226 0.595398
0.000000 0.372711 0.522705
0.068146 0.392700 0.546051
0.277557 0.446777 0.599731
0.666168 0.487671 0.640198
0.995056 0.526031 0.684265
0.118195 0.658875 0.692078
0.199005 0.676208 0.706604
0.374054 0.706329 0.730835
0.671783 0.735626 0.752380
1.000000 0.766876 0.771820
0.230255 0.912628 0.780334
0.454132 0.959595 0.776245
0.665283 0.981018 0.781494
0.858124 0.996704 0.803680
1.000000 1.000000 0.849365
0.000000 0.054749 0.340302
0.039185 0.057373 0.346069
0.125580 0.034424 0.372894
0.823395 0.117645 0.462830
1.000000 0.351105 0.637177
0.000000 0.138214 0.427216
0.039185 0.142761 0.439117
0.146942 0.141449 0.495758
0.753113 0.214111 0.583649
0.988647 0.333801 0.657318
0.000000 0.350159 0.603027
0.039185 0.357422 0.613220
0.189423 0.392456 0.655579
0.549896 0.453491 0.722412
0.903870 0.534241 0.774261
0.055054 0.616272 0.768616
0.131744 0.635986 0.788574
0.269562 0.672699 0.819427
0.558777 0.712738 0.853119
0.925354 0.765228 0.886383
0.109161 0.881744 0.919250
0.237671 0.945557 0.960815
0.437622 0.968384 0.977386
0.690277 0.986786 0.988495
0.998199 1.000000 1.000000
